;FLAVOR:Marlin
;TIME:6429
;Filament used: 4.22775m
;Layer height: 0.2
;MINX:71.12
;MINY:44
;MINZ:0.3
;MAXX:129
;MAXY:156
;MAXZ:15.9
;Generated with Cura_SteamEngine 4.8.0
M140 S90
M105
M190 S90
M104 S240
M105
M109 S240
M82 ;absolute extrusion mode
G21 ;metric values
G90 ;absolute positioning
M82 ;set extruder to absolute mode
M107 ;start with the fan off
G28 X0 Y0 ;move X/Y to min endstops
G28 Z0 ;move Z to min endstops
G1 Z15.0 F9000 ;move the platform down 15mm
G92 E0 ;zero the extruded length
G1 F200 E3 ;extrude 3mm of feed stock
G92 E0 ;zero the extruded length again
G1 F9000
;Put printing message on LCD screen
M117 Printing...
G92 E0
G92 E0
G1 F1500 E-6.5
;LAYER_COUNT:79
;LAYER:0
M107
G0 F3600 X72.526 Y48.743 Z0.3
;TYPE:SKIRT
G1 F1500 E0
G1 F1800 X73.017 Y48.007 E0.04414
G1 X73.572 Y47.317 E0.08832
G1 X74.187 Y46.68 E0.13249
G1 X74.857 Y46.102 E0.17664
G1 X75.576 Y45.586 E0.22079
G1 X76.339 Y45.137 E0.26496
G1 X77.14 Y44.759 E0.30915
G1 X77.971 Y44.455 E0.35329
G1 X78.826 Y44.227 E0.39744
G1 X79.699 Y44.077 E0.44163
G1 X80.921 Y44 E0.50272
G1 X83.283 Y44 E0.62056
G1 X84.167 Y44.04 E0.66471
G1 X85.044 Y44.16 E0.70887
G1 X85.907 Y44.358 E0.75304
G1 X86.748 Y44.633 E0.79719
G1 X87.561 Y44.983 E0.84135
G1 X88.34 Y45.405 E0.88555
G1 X89.076 Y45.896 E0.92969
G1 X89.766 Y46.451 E0.97387
G1 X90.213 Y46.87 E1.00443
G1 X96.13 Y52.787 E1.42191
G1 X96.727 Y53.441 E1.46609
G1 X97.262 Y54.146 E1.51024
G1 X97.732 Y54.896 E1.5544
G1 X98.132 Y55.686 E1.59858
G1 X98.46 Y56.508 E1.64273
G1 X98.711 Y57.357 E1.6869
G1 X98.857 Y58.082 E1.7238
G1 X99.386 Y57.687 E1.75673
G1 X100.141 Y57.224 E1.80092
G1 X100.934 Y56.831 E1.84507
G1 X101.759 Y56.512 E1.8892
G1 X102.61 Y56.267 E1.93338
G1 X103.479 Y56.101 E1.97752
G1 X104.36 Y56.014 E2.02169
G1 X104.884 Y56 E2.04784
G1 X114.083 Y56 E2.50678
G1 X114.967 Y56.04 E2.55093
G1 X115.844 Y56.16 E2.59509
G1 X116.707 Y56.358 E2.63926
G1 X117.548 Y56.633 E2.68341
G1 X118.361 Y56.983 E2.72757
G1 X119.14 Y57.405 E2.77177
G1 X119.876 Y57.896 E2.81591
G1 X120.566 Y58.451 E2.86009
G1 X121.013 Y58.87 E2.89065
G1 X126.13 Y63.987 E3.25169
G1 X126.727 Y64.641 E3.29586
G1 X127.262 Y65.346 E3.34002
G1 X127.732 Y66.096 E3.38418
G1 X128.132 Y66.886 E3.42835
G1 X128.46 Y67.708 E3.47251
G1 X128.711 Y68.557 E3.51668
G1 X128.886 Y69.425 E3.56085
G1 X128.981 Y70.305 E3.60501
G1 X129 Y70.917 E3.63556
G1 X129 Y94.083 E4.79131
G1 X128.96 Y94.967 E4.83546
G1 X128.84 Y95.844 E4.87962
G1 X128.642 Y96.707 E4.9238
G1 X128.367 Y97.548 E4.96794
G1 X128.017 Y98.361 E5.0121
G1 X127.595 Y99.14 E5.0563
G1 X127.104 Y99.876 E5.10044
G1 X127.002 Y100.003 E5.10857
G1 X127.262 Y100.346 E5.13004
G1 X127.732 Y101.096 E5.1742
G1 X128.132 Y101.886 E5.21838
G1 X128.46 Y102.708 E5.26253
G1 X128.711 Y103.557 E5.3067
G1 X128.886 Y104.425 E5.35088
G1 X128.981 Y105.305 E5.39503
G1 X129 Y105.917 E5.42558
G1 X129 Y129.083 E6.58134
G1 X128.96 Y129.967 E6.62549
G1 X128.84 Y130.844 E6.66965
G1 X128.642 Y131.707 E6.71382
G1 X128.367 Y132.548 E6.75797
G1 X128.017 Y133.361 E6.80213
G1 X127.595 Y134.14 E6.84633
G1 X127.104 Y134.876 E6.89047
G1 X126.549 Y135.566 E6.93464
G1 X126.13 Y136.013 E6.96521
G1 X121.013 Y141.13 E7.32624
G1 X120.359 Y141.727 E7.37042
G1 X119.654 Y142.262 E7.41458
G1 X118.904 Y142.732 E7.45873
G1 X118.114 Y143.132 E7.50291
G1 X117.292 Y143.46 E7.54706
G1 X116.443 Y143.711 E7.59123
G1 X115.575 Y143.886 E7.63541
G1 X114.695 Y143.981 E7.67957
G1 X114.083 Y144 E7.71012
G1 X104.884 Y144 E8.16906
G1 X104 Y143.96 E8.2132
G1 X103.123 Y143.84 E8.25736
G1 X102.26 Y143.642 E8.30154
G1 X101.419 Y143.367 E8.34568
G1 X100.606 Y143.017 E8.38984
G1 X99.827 Y142.595 E8.43404
G1 X99.091 Y142.104 E8.47818
G1 X98.857 Y141.916 E8.49316
G1 X98.84 Y142.044 E8.4996
G1 X98.642 Y142.907 E8.54377
G1 X98.367 Y143.748 E8.58792
G1 X98.017 Y144.561 E8.63208
G1 X97.595 Y145.34 E8.67628
G1 X97.104 Y146.076 E8.72042
G1 X96.549 Y146.766 E8.7646
G1 X96.13 Y147.213 E8.79516
G1 X90.213 Y153.13 E9.21264
G1 X89.559 Y153.727 E9.25682
G1 X88.854 Y154.262 E9.30097
G1 X88.104 Y154.732 E9.34513
G1 X87.314 Y155.132 E9.38931
G1 X86.492 Y155.46 E9.43346
G1 X85.643 Y155.711 E9.47763
G1 X84.775 Y155.886 E9.52181
G1 X83.895 Y155.981 E9.56596
G1 X83.283 Y156 E9.59651
G1 X80.92 Y156 E9.7144
G1 X80.036 Y155.96 E9.75855
G1 X79.159 Y155.84 E9.80271
G1 X78.296 Y155.642 E9.84689
G1 X77.455 Y155.367 E9.89103
G1 X76.642 Y155.017 E9.93519
G1 X75.863 Y154.595 E9.97939
G1 X75.127 Y154.104 E10.02353
G1 X74.437 Y153.549 E10.06771
G1 X73.8 Y152.934 E10.11188
G1 X73.222 Y152.264 E10.15603
G1 X72.706 Y151.545 E10.20018
G1 X72.257 Y150.782 E10.24435
G1 X71.879 Y149.981 E10.28854
G1 X71.575 Y149.15 E10.33268
G1 X71.347 Y148.295 E10.37683
G1 X71.197 Y147.422 E10.42102
G1 X71.12 Y146.2 E10.48211
G1 X71.12 Y110.616 E12.2574
G1 X71.16 Y109.732 E12.30155
G1 X71.28 Y108.855 E12.34571
G1 X71.478 Y107.992 E12.38989
G1 X71.753 Y107.151 E12.43403
G1 X72.103 Y106.338 E12.47819
G1 X72.525 Y105.559 E12.52239
G1 X72.919 Y104.958 E12.55824
G1 X76.425 Y100.001 E12.86116
G1 X72.919 Y95.043 E13.16411
G1 X72.441 Y94.298 E13.20827
G1 X72.033 Y93.513 E13.25241
G1 X71.697 Y92.694 E13.29657
G1 X71.436 Y91.848 E13.34074
G1 X71.252 Y90.982 E13.38491
G1 X71.147 Y90.103 E13.42908
G1 X71.121 Y89.385 E13.46492
G1 X71.121 Y53.8 E15.24026
G1 X71.161 Y52.916 E15.28441
G1 X71.281 Y52.039 E15.32857
G1 X71.479 Y51.176 E15.37275
G1 X71.754 Y50.335 E15.41689
G1 X72.104 Y49.522 E15.46105
G1 X72.526 Y48.743 E15.50525
G0 F3600 X72.925 Y48.858
G1 F1800 X73.414 Y48.143 E15.54847
G1 X73.967 Y47.475 E15.59173
G1 X74.58 Y46.861 E15.63502
G1 X75.246 Y46.306 E15.67827
G1 X75.96 Y45.816 E15.72147
G1 X76.717 Y45.392 E15.76476
G1 X77.51 Y45.041 E15.80802
G1 X78.331 Y44.764 E15.85125
G1 X79.175 Y44.564 E15.89453
G1 X80.033 Y44.442 E15.93776
G1 X80.921 Y44.4 E15.98212
G1 X83.283 Y44.4 E16.09996
G1 X84.149 Y44.44 E16.14321
G1 X85.008 Y44.56 E16.18648
G1 X85.852 Y44.758 E16.22973
G1 X86.674 Y45.033 E16.27297
G1 X87.467 Y45.383 E16.31622
G1 X88.225 Y45.804 E16.35948
G1 X88.94 Y46.293 E16.40269
G1 X89.608 Y46.846 E16.44596
G1 X89.93 Y47.153 E16.46815
G1 X95.847 Y53.07 E16.88563
G1 X96.431 Y53.711 E16.92889
G1 X96.954 Y54.403 E16.97217
G1 X97.41 Y55.14 E17.0154
G1 X97.797 Y55.915 E17.05862
G1 X98.111 Y56.724 E17.10192
G1 X98.349 Y57.557 E17.14514
G1 X98.509 Y58.409 E17.18839
G1 X98.551 Y58.865 E17.21123
G1 X98.985 Y58.481 E17.24014
G1 X99.685 Y57.969 E17.28341
G1 X100.428 Y57.523 E17.32665
G1 X101.21 Y57.148 E17.36991
G1 X102.023 Y56.846 E17.41318
G1 X102.86 Y56.621 E17.45642
G1 X103.714 Y56.473 E17.49967
G1 X104.884 Y56.4 E17.55815
G1 X114.083 Y56.4 E18.01709
G1 X114.949 Y56.44 E18.06034
G1 X115.808 Y56.56 E18.10361
G1 X116.652 Y56.758 E18.14686
G1 X117.474 Y57.033 E18.19011
G1 X118.267 Y57.383 E18.23335
G1 X119.025 Y57.804 E18.27661
G1 X119.74 Y58.293 E18.31983
G1 X120.408 Y58.846 E18.36309
G1 X120.73 Y59.153 E18.38529
G1 X125.847 Y64.27 E18.74632
G1 X126.431 Y64.911 E18.78958
G1 X126.954 Y65.603 E18.83286
G1 X127.41 Y66.34 E18.87609
G1 X127.797 Y67.115 E18.91931
G1 X128.111 Y67.924 E18.96261
G1 X128.349 Y68.757 E19.00583
G1 X128.509 Y69.609 E19.04908
G1 X128.589 Y70.472 E19.09232
G1 X128.6 Y70.917 E19.11453
G1 X128.6 Y94.083 E20.27028
G1 X128.56 Y94.949 E20.31353
G1 X128.44 Y95.808 E20.3568
G1 X128.242 Y96.652 E20.40006
G1 X127.967 Y97.474 E20.4433
G1 X127.617 Y98.267 E20.48654
G1 X127.196 Y99.025 E20.5298
G1 X126.707 Y99.74 E20.57302
G1 X126.495 Y99.996 E20.5896
G1 X126.954 Y100.603 E20.62757
G1 X127.41 Y101.34 E20.67081
G1 X127.797 Y102.115 E20.71402
G1 X128.111 Y102.924 E20.75732
G1 X128.349 Y103.757 E20.80054
G1 X128.509 Y104.609 E20.84379
G1 X128.589 Y105.472 E20.88703
G1 X128.6 Y105.917 E20.90924
G1 X128.6 Y129.083 E22.06499
G1 X128.56 Y129.949 E22.10824
G1 X128.44 Y130.808 E22.15152
G1 X128.242 Y131.652 E22.19477
G1 X127.967 Y132.474 E22.23801
G1 X127.617 Y133.267 E22.28126
G1 X127.196 Y134.025 E22.32451
G1 X126.707 Y134.74 E22.36773
G1 X126.154 Y135.408 E22.41099
G1 X125.847 Y135.73 E22.43319
G1 X120.73 Y140.847 E22.79422
G1 X120.089 Y141.431 E22.83748
G1 X119.397 Y141.954 E22.88076
G1 X118.66 Y142.41 E22.924
G1 X117.885 Y142.797 E22.96722
G1 X117.076 Y143.111 E23.01051
G1 X116.243 Y143.349 E23.05373
G1 X115.391 Y143.509 E23.09698
G1 X114.528 Y143.589 E23.14022
G1 X114.083 Y143.6 E23.16243
G1 X104.884 Y143.6 E23.62137
G1 X104.018 Y143.56 E23.66462
G1 X103.159 Y143.44 E23.70789
G1 X102.315 Y143.242 E23.75114
G1 X101.493 Y142.967 E23.79439
G1 X100.7 Y142.617 E23.83763
G1 X99.942 Y142.196 E23.88089
G1 X99.227 Y141.707 E23.92411
G1 X98.559 Y141.154 E23.96737
G1 X98.44 Y142.008 E24.01039
G1 X98.242 Y142.852 E24.05364
G1 X97.967 Y143.674 E24.09688
G1 X97.617 Y144.467 E24.14013
G1 X97.196 Y145.225 E24.18339
G1 X96.707 Y145.94 E24.2266
G1 X96.154 Y146.608 E24.26987
G1 X95.847 Y146.93 E24.29206
G1 X89.93 Y152.847 E24.70954
G1 X89.289 Y153.431 E24.7528
G1 X88.597 Y153.954 E24.79608
G1 X87.86 Y154.41 E24.83931
G1 X87.085 Y154.797 E24.88253
G1 X86.276 Y155.111 E24.92583
G1 X85.443 Y155.349 E24.96905
G1 X84.591 Y155.509 E25.0123
G1 X83.728 Y155.589 E25.05554
G1 X83.283 Y155.6 E25.07774
G1 X80.92 Y155.6 E25.19564
G1 X80.054 Y155.56 E25.23889
G1 X79.195 Y155.44 E25.28216
G1 X78.351 Y155.242 E25.32541
G1 X77.529 Y154.967 E25.36865
G1 X76.736 Y154.617 E25.4119
G1 X75.978 Y154.196 E25.45516
G1 X75.263 Y153.707 E25.49837
G1 X74.595 Y153.154 E25.54164
G1 X73.981 Y152.541 E25.58492
G1 X73.426 Y151.875 E25.62817
G1 X72.936 Y151.161 E25.67138
G1 X72.512 Y150.404 E25.71466
G1 X72.161 Y149.611 E25.75793
G1 X71.884 Y148.79 E25.80116
G1 X71.684 Y147.946 E25.84443
G1 X71.562 Y147.088 E25.88767
G1 X71.52 Y146.2 E25.93202
G1 X71.52 Y110.616 E27.70731
G1 X71.56 Y109.75 E27.75056
G1 X71.68 Y108.891 E27.79384
G1 X71.878 Y108.047 E27.83709
G1 X72.153 Y107.225 E27.88033
G1 X72.503 Y106.432 E27.92357
G1 X72.924 Y105.674 E27.96683
G1 X73.245 Y105.189 E27.99585
G1 X76.915 Y100 E28.31294
G1 X73.246 Y94.812 E28.62995
G1 X72.779 Y94.082 E28.67319
G1 X72.381 Y93.312 E28.71643
G1 X72.055 Y92.508 E28.75971
G1 X71.805 Y91.678 E28.80296
G1 X71.633 Y90.829 E28.84618
G1 X71.539 Y89.967 E28.88944
G1 X71.521 Y89.385 E28.91849
G1 X71.521 Y53.8 E30.69383
G1 X71.561 Y52.934 E30.73708
G1 X71.681 Y52.075 E30.78035
G1 X71.879 Y51.231 E30.8236
G1 X72.154 Y50.409 E30.86685
G1 X72.504 Y49.616 E30.91009
G1 X72.925 Y48.858 E30.95335
G0 F3600 X73.323 Y48.976
G1 F1800 X73.811 Y48.282 E30.99568
G1 X74.362 Y47.637 E31.038
G1 X74.972 Y47.047 E31.08034
G1 X75.634 Y46.517 E31.12265
G1 X76.343 Y46.051 E31.16498
G1 X77.093 Y45.655 E31.20729
G1 X77.877 Y45.33 E31.24963
G1 X78.688 Y45.081 E31.29196
G1 X79.519 Y44.91 E31.33428
G1 X80.362 Y44.817 E31.3766
G1 X80.921 Y44.8 E31.4045
G1 X83.283 Y44.8 E31.52234
G1 X84.13 Y44.84 E31.56464
G1 X84.97 Y44.96 E31.60698
G1 X85.795 Y45.158 E31.6493
G1 X86.598 Y45.433 E31.69165
G1 X87.371 Y45.782 E31.73396
G1 X88.107 Y46.202 E31.77624
G1 X88.801 Y46.69 E31.81857
G1 X89.647 Y47.436 E31.87484
G1 X95.564 Y53.353 E32.29232
G1 X96.135 Y53.98 E32.33462
G1 X96.644 Y54.659 E32.37696
G1 X97.087 Y55.382 E32.41926
G1 X97.46 Y56.144 E32.46159
G1 X97.76 Y56.938 E32.50394
G1 X97.984 Y57.756 E32.54625
G1 X98.129 Y58.592 E32.58858
G1 X98.2 Y59.717 E32.64482
G1 X98.2 Y59.783 E32.64811
G1 X98.654 Y59.305 E32.681
G1 X99.293 Y58.747 E32.72333
G1 X99.982 Y58.252 E32.76565
G1 X100.715 Y57.824 E32.808
G1 X101.484 Y57.467 E32.8503
G1 X102.284 Y57.184 E32.89263
G1 X103.107 Y56.977 E32.93497
G1 X103.945 Y56.849 E32.97726
G1 X104.884 Y56.8 E33.02417
G1 X114.083 Y56.8 E33.48311
G1 X114.93 Y56.84 E33.52542
G1 X115.77 Y56.96 E33.56775
G1 X116.595 Y57.158 E33.61008
G1 X117.398 Y57.433 E33.65243
G1 X118.171 Y57.782 E33.69474
G1 X118.907 Y58.202 E33.73702
G1 X119.601 Y58.69 E33.77934
G1 X120.447 Y59.436 E33.83562
G1 X125.564 Y64.553 E34.19665
G1 X126.135 Y65.18 E34.23896
G1 X126.644 Y65.859 E34.28129
G1 X127.087 Y66.582 E34.3236
G1 X127.46 Y67.344 E34.36592
G1 X127.76 Y68.138 E34.40827
G1 X127.984 Y68.956 E34.45058
G1 X128.129 Y69.792 E34.49291
G1 X128.2 Y70.917 E34.54915
G1 X128.2 Y94.083 E35.70491
G1 X128.16 Y94.93 E35.74721
G1 X128.04 Y95.77 E35.78955
G1 X127.842 Y96.595 E35.83187
G1 X127.567 Y97.398 E35.87422
G1 X127.218 Y98.171 E35.91653
G1 X126.798 Y98.907 E35.95881
G1 X126.31 Y99.601 E36.00114
G1 X125.965 Y99.993 E36.02719
G1 X126.135 Y100.18 E36.0398
G1 X126.644 Y100.859 E36.08213
G1 X127.087 Y101.582 E36.12444
G1 X127.46 Y102.344 E36.16676
G1 X127.76 Y103.138 E36.20911
G1 X127.984 Y103.956 E36.25142
G1 X128.129 Y104.792 E36.29375
G1 X128.2 Y105.917 E36.34999
G1 X128.2 Y129.083 E37.50575
G1 X128.16 Y129.93 E37.54805
G1 X128.04 Y130.77 E37.59039
G1 X127.842 Y131.595 E37.63271
G1 X127.567 Y132.398 E37.67506
G1 X127.218 Y133.171 E37.71737
G1 X126.798 Y133.907 E37.75965
G1 X126.31 Y134.601 E37.80198
G1 X125.564 Y135.447 E37.85825
G1 X120.447 Y140.564 E38.21928
G1 X119.82 Y141.135 E38.26159
G1 X119.141 Y141.644 E38.30393
G1 X118.418 Y142.087 E38.34623
G1 X117.656 Y142.46 E38.38856
G1 X116.862 Y142.76 E38.4309
G1 X116.044 Y142.984 E38.47322
G1 X115.208 Y143.129 E38.51555
G1 X114.083 Y143.2 E38.57179
G1 X104.884 Y143.2 E39.03073
G1 X104.037 Y143.16 E39.07303
G1 X103.197 Y143.04 E39.11536
G1 X102.372 Y142.842 E39.15769
G1 X101.569 Y142.567 E39.20004
G1 X100.796 Y142.218 E39.24235
G1 X100.06 Y141.798 E39.28463
G1 X99.366 Y141.31 E39.32695
G1 X98.721 Y140.759 E39.36928
G1 X98.2 Y140.22 E39.40668
G1 X98.2 Y140.283 E39.40982
G1 X98.16 Y141.13 E39.45212
G1 X98.04 Y141.97 E39.49446
G1 X97.842 Y142.795 E39.53679
G1 X97.567 Y143.598 E39.57913
G1 X97.218 Y144.371 E39.62145
G1 X96.798 Y145.107 E39.66372
G1 X96.31 Y145.801 E39.70605
G1 X95.564 Y146.647 E39.76232
G1 X89.647 Y152.564 E40.1798
G1 X89.02 Y153.135 E40.22211
G1 X88.341 Y153.644 E40.26444
G1 X87.618 Y154.087 E40.30675
G1 X86.856 Y154.46 E40.34907
G1 X86.062 Y154.76 E40.39142
G1 X85.244 Y154.984 E40.43373
G1 X84.408 Y155.129 E40.47606
G1 X83.283 Y155.2 E40.5323
G1 X80.92 Y155.2 E40.65019
G1 X80.073 Y155.16 E40.6925
G1 X79.233 Y155.04 E40.73483
G1 X78.408 Y154.842 E40.77716
G1 X77.605 Y154.567 E40.8195
G1 X76.832 Y154.218 E40.86182
G1 X76.096 Y153.798 E40.90409
G1 X75.402 Y153.31 E40.94642
G1 X74.757 Y152.759 E40.98874
G1 X74.167 Y152.149 E41.03108
G1 X73.637 Y151.487 E41.07339
G1 X73.171 Y150.778 E41.11572
G1 X72.775 Y150.028 E41.15803
G1 X72.45 Y149.244 E41.20037
G1 X72.201 Y148.433 E41.2427
G1 X72.03 Y147.602 E41.28503
G1 X71.937 Y146.759 E41.32734
G1 X71.92 Y146.2 E41.35524
G1 X71.92 Y110.616 E43.13053
G1 X71.96 Y109.769 E43.17284
G1 X72.08 Y108.929 E43.21517
G1 X72.278 Y108.104 E43.2575
G1 X72.553 Y107.301 E43.29984
G1 X72.902 Y106.528 E43.34216
G1 X73.322 Y105.792 E43.38444
G1 X73.572 Y105.42 E43.4068
G1 X77.405 Y100 E43.73799
G1 X73.573 Y94.581 E44.06911
G1 X73.116 Y93.866 E44.11144
G1 X72.729 Y93.112 E44.15373
G1 X72.414 Y92.324 E44.19606
G1 X72.175 Y91.51 E44.23839
G1 X72.014 Y90.677 E44.28072
G1 X71.932 Y89.833 E44.32302
G1 X71.921 Y89.385 E44.34538
G1 X71.921 Y53.8 E46.12072
G1 X71.961 Y52.953 E46.16303
G1 X72.081 Y52.113 E46.20536
G1 X72.279 Y51.288 E46.24769
G1 X72.554 Y50.485 E46.29004
G1 X72.903 Y49.712 E46.33235
G1 X73.323 Y48.976 E46.37463
G0 F3600 X73.722 Y49.096
G1 F1800 X74.208 Y48.425 E46.41596
G1 X74.757 Y47.803 E46.45735
G1 X75.363 Y47.237 E46.49872
G1 X76.021 Y46.732 E46.5401
G1 X76.724 Y46.293 E46.58145
G1 X77.467 Y45.924 E46.62284
G1 X78.242 Y45.628 E46.66423
G1 X79.041 Y45.408 E46.70557
G1 X79.858 Y45.266 E46.74695
G1 X80.921 Y45.2 E46.80008
G1 X83.283 Y45.2 E46.91792
G1 X84.111 Y45.24 E46.95928
G1 X84.932 Y45.36 E47.00067
G1 X85.737 Y45.558 E47.04203
G1 X86.519 Y45.832 E47.08337
G1 X87.272 Y46.181 E47.12478
G1 X87.987 Y46.601 E47.16615
G1 X88.658 Y47.087 E47.20748
G1 X89.364 Y47.719 E47.25476
G1 X95.281 Y53.636 E47.67223
G1 X95.839 Y54.25 E47.71363
G1 X96.334 Y54.915 E47.75499
G1 X96.764 Y55.624 E47.79636
G1 X97.123 Y56.371 E47.8377
G1 X97.408 Y57.15 E47.87909
G1 X97.617 Y57.952 E47.92044
G1 X97.748 Y58.771 E47.96182
G1 X97.8 Y59.717 E48.00908
G1 X97.8 Y60.935 E48.06985
G1 X97.884 Y60.804 E48.07761
G1 X98.398 Y60.153 E48.11899
G1 X98.972 Y59.555 E48.16035
G1 X99.601 Y59.014 E48.20174
