;FLAVOR:Marlin
;TIME:13266
;Filament used: 9.47232m
;Layer height: 0.2
;MINX:67.275
;MINY:36.992
;MINZ:0.3
;MAXX:134.151
;MAXY:163.009
;MAXZ:35.9
;Generated with Cura_SteamEngine 4.8.0
M140 S90
M105
M190 S90
M104 S240
M105
M109 S240
M82 ;absolute extrusion mode
G21 ;metric values
G90 ;absolute positioning
M82 ;set extruder to absolute mode
M107 ;start with the fan off
G28 X0 Y0 ;move X/Y to min endstops
G28 Z0 ;move Z to min endstops
G1 Z15.0 F9000 ;move the platform down 15mm
G92 E0 ;zero the extruded length
G1 F200 E3 ;extrude 3mm of feed stock
G92 E0 ;zero the extruded length again
G1 F9000
;Put printing message on LCD screen
M117 Printing...
G92 E0
G92 E0
G1 F1500 E-6.5
;LAYER_COUNT:179
;LAYER:0
M107
G0 F3600 X68.68 Y42.086 Z0.3
;TYPE:SKIRT
G1 F1500 E0
G1 F1800 X69.171 Y41.349 E0.04418
G1 X69.726 Y40.659 E0.08836
G1 X70.145 Y40.212 E0.11893
G1 X70.495 Y39.862 E0.14362
G1 X71.149 Y39.265 E0.1878
G1 X71.854 Y38.73 E0.23195
G1 X72.604 Y38.26 E0.27611
G1 X73.394 Y37.86 E0.32029
G1 X74.216 Y37.532 E0.36444
G1 X75.065 Y37.281 E0.40861
G1 X75.933 Y37.106 E0.45279
G1 X76.813 Y37.011 E0.49695
G1 X77.425 Y36.992 E0.52749
G1 X118.116 Y36.992 E2.55758
G1 X119 Y37.032 E2.60172
G1 X119.877 Y37.152 E2.64588
G1 X120.74 Y37.35 E2.69006
G1 X121.581 Y37.625 E2.7342
G1 X122.394 Y37.975 E2.77836
G1 X123.173 Y38.397 E2.82256
G1 X123.909 Y38.888 E2.8667
G1 X124.599 Y39.443 E2.91088
G1 X125.046 Y39.863 E2.94148
G1 X131.28 Y46.098 E3.38136
G1 X131.877 Y46.752 E3.42554
G1 X132.413 Y47.456 E3.46968
G1 X132.883 Y48.207 E3.51388
G1 X133.283 Y48.996 E3.55801
G1 X133.61 Y49.819 E3.6022
G1 X133.862 Y50.667 E3.64633
G1 X134.036 Y51.535 E3.6905
G1 X134.131 Y52.415 E3.73466
G1 X134.15 Y53.027 E3.7652
G1 X134.151 Y93.174 E5.76815
G1 X134.111 Y94.058 E5.81229
G1 X133.991 Y94.935 E5.85646
G1 X133.793 Y95.798 E5.90063
G1 X133.518 Y96.639 E5.94477
G1 X133.168 Y97.452 E5.98893
G1 X132.746 Y98.23 E6.03309
G1 X132.255 Y98.967 E6.07727
G1 X131.7 Y99.657 E6.12145
G1 X131.375 Y100.002 E6.1451
G1 X131.877 Y100.552 E6.18225
G1 X132.413 Y101.257 E6.22643
G1 X132.883 Y102.007 E6.27059
G1 X133.283 Y102.796 E6.31472
G1 X133.61 Y103.619 E6.3589
G1 X133.862 Y104.468 E6.40309
G1 X134.036 Y105.336 E6.44725
G1 X134.131 Y106.216 E6.49141
G1 X134.15 Y106.827 E6.52191
G1 X134.151 Y146.974 E8.52485
G1 X134.111 Y147.858 E8.569
G1 X133.991 Y148.735 E8.61316
G1 X133.793 Y149.598 E8.65733
G1 X133.518 Y150.439 E8.70148
G1 X133.168 Y151.252 E8.74564
G1 X132.746 Y152.03 E8.78979
G1 X132.255 Y152.767 E8.83398
G1 X131.7 Y153.457 E8.87815
G1 X131.28 Y153.904 E8.90876
G1 X125.045 Y160.138 E9.34863
G1 X124.391 Y160.735 E9.39281
G1 X123.687 Y161.271 E9.43696
G1 X122.936 Y161.741 E9.48116
G1 X122.147 Y162.141 E9.52529
G1 X121.324 Y162.468 E9.56947
G1 X120.476 Y162.72 E9.61361
G1 X119.608 Y162.894 E9.65777
G1 X118.728 Y162.989 E9.70193
G1 X118.116 Y163.008 E9.73248
G1 X77.426 Y163.009 E11.76251
G1 X76.542 Y162.969 E11.80666
G1 X75.665 Y162.849 E11.85082
G1 X74.802 Y162.651 E11.89499
G1 X73.961 Y162.376 E11.93914
G1 X73.148 Y162.026 E11.9833
G1 X72.37 Y161.604 E12.02745
G1 X71.633 Y161.113 E12.07164
G1 X70.943 Y160.558 E12.11581
G1 X70.496 Y160.139 E12.14638
G1 X70.146 Y159.789 E12.17107
G1 X69.549 Y159.135 E12.21525
G1 X69.014 Y158.43 E12.25941
G1 X68.544 Y157.68 E12.30356
G1 X68.144 Y156.89 E12.34774
G1 X67.816 Y156.068 E12.3919
G1 X67.565 Y155.219 E12.43606
G1 X67.39 Y154.351 E12.48024
G1 X67.295 Y153.471 E12.5244
G1 X67.276 Y152.859 E12.55495
G1 X67.276 Y102.292 E15.07774
G1 X67.316 Y101.408 E15.12189
G1 X67.436 Y100.531 E15.16605
G1 X67.557 Y100.005 E15.19298
G1 X67.503 Y99.803 E15.20341
G1 X67.353 Y98.93 E15.24761
G1 X67.276 Y97.708 E15.30869
G1 X67.275 Y47.142 E17.83144
G1 X67.315 Y46.258 E17.87559
G1 X67.435 Y45.381 E17.91975
G1 X67.633 Y44.518 E17.96392
G1 X67.908 Y43.677 E18.00807
G1 X68.258 Y42.864 E18.05223
G1 X68.68 Y42.086 E18.09638
G0 F3600 X69.079 Y42.2
G1 F1800 X69.568 Y41.485 E18.1396
G1 X70.121 Y40.817 E18.18287
G1 X70.778 Y40.145 E18.22975
G1 X71.419 Y39.561 E18.27301
G1 X72.111 Y39.038 E18.31629
G1 X72.848 Y38.582 E18.35953
G1 X73.623 Y38.195 E18.40274
G1 X74.432 Y37.881 E18.44604
G1 X75.265 Y37.643 E18.48926
G1 X76.117 Y37.483 E18.53251
G1 X76.98 Y37.403 E18.57575
G1 X77.425 Y37.392 E18.59796
G1 X118.116 Y37.392 E20.62804
G1 X118.982 Y37.432 E20.67129
G1 X119.841 Y37.552 E20.71456
G1 X120.685 Y37.75 E20.75781
G1 X121.507 Y38.025 E20.80106
G1 X122.3 Y38.375 E20.8443
G1 X123.058 Y38.796 E20.88756
G1 X123.773 Y39.285 E20.93078
G1 X124.441 Y39.838 E20.97404
G1 X124.763 Y40.146 E20.99627
G1 X130.997 Y46.381 E21.43615
G1 X131.581 Y47.021 E21.47937
G1 X132.104 Y47.713 E21.52265
G1 X132.561 Y48.45 E21.56591
G1 X132.947 Y49.226 E21.60915
G1 X133.261 Y50.034 E21.6524
G1 X133.499 Y50.868 E21.69567
G1 X133.659 Y51.72 E21.73892
G1 X133.74 Y52.583 E21.78217
G1 X133.75 Y53.027 E21.80432
G1 X133.751 Y93.174 E23.80726
G1 X133.711 Y94.04 E23.85052
G1 X133.591 Y94.898 E23.89374
G1 X133.393 Y95.742 E23.93699
G1 X133.118 Y96.565 E23.98028
G1 X132.769 Y97.358 E24.0235
G1 X132.347 Y98.116 E24.06679
G1 X131.858 Y98.831 E24.11
G1 X131.305 Y99.499 E24.15327
G1 X130.818 Y100.001 E24.18816
G1 X130.998 Y100.181 E24.20086
G1 X131.582 Y100.822 E24.24412
G1 X132.104 Y101.513 E24.28733
G1 X132.561 Y102.25 E24.33059
G1 X132.947 Y103.026 E24.37383
G1 X133.261 Y103.835 E24.41713
G1 X133.499 Y104.668 E24.46035
G1 X133.659 Y105.52 E24.5036
G1 X133.74 Y106.384 E24.54689
G1 X133.75 Y106.827 E24.569
G1 X133.751 Y146.974 E26.57194
G1 X133.711 Y147.84 E26.61519
G1 X133.591 Y148.698 E26.65842
G1 X133.393 Y149.542 E26.70167
G1 X133.118 Y150.365 E26.74496
G1 X132.769 Y151.158 E26.78818
G1 X132.347 Y151.916 E26.83146
G1 X131.858 Y152.631 E26.87468
G1 X131.305 Y153.299 E26.91794
G1 X130.997 Y153.621 E26.94018
G1 X124.762 Y159.855 E27.38005
G1 X124.122 Y160.439 E27.42328
G1 X123.43 Y160.962 E27.46655
G1 X122.693 Y161.419 E27.50982
G1 X121.917 Y161.805 E27.55306
G1 X121.109 Y162.119 E27.59631
G1 X120.275 Y162.357 E27.63958
G1 X119.423 Y162.517 E27.68282
G1 X118.56 Y162.598 E27.72607
G1 X118.116 Y162.608 E27.74823
G1 X77.426 Y162.609 E29.77826
G1 X76.56 Y162.569 E29.82151
G1 X75.702 Y162.449 E29.86473
G1 X74.858 Y162.251 E29.90798
G1 X74.035 Y161.976 E29.95127
G1 X73.242 Y161.627 E29.9945
G1 X72.484 Y161.205 E30.03778
G1 X71.769 Y160.716 E30.081
G1 X71.101 Y160.163 E30.12426
G1 X70.429 Y159.506 E30.17115
G1 X69.845 Y158.865 E30.21441
G1 X69.322 Y158.173 E30.25769
G1 X68.866 Y157.436 E30.30092
G1 X68.479 Y156.661 E30.34414
G1 X68.165 Y155.852 E30.38744
G1 X67.927 Y155.019 E30.43066
G1 X67.767 Y154.167 E30.47391
G1 X67.687 Y153.304 E30.51715
G1 X67.676 Y152.859 E30.53935
G1 X67.676 Y102.292 E33.06215
G1 X67.716 Y101.426 E33.1054
G1 X67.836 Y100.567 E33.14868
G1 X67.969 Y99.999 E33.17778
G1 X67.84 Y99.454 E33.20572
G1 X67.718 Y98.596 E33.24896
G1 X67.676 Y97.708 E33.29331
G1 X67.675 Y47.142 E35.81606
G1 X67.715 Y46.276 E35.85931
G1 X67.835 Y45.417 E35.90258
G1 X68.033 Y44.574 E35.94578
G1 X68.308 Y43.751 E35.98907
G1 X68.657 Y42.958 E36.0323
G1 X69.079 Y42.2 E36.07558
G0 F3600 X69.477 Y42.318
G1 F1800 X69.965 Y41.624 E36.11791
G1 X70.711 Y40.778 E36.17418
G1 X71.061 Y40.428 E36.19887
G1 X71.688 Y39.857 E36.24118
G1 X72.367 Y39.348 E36.28352
G1 X73.09 Y38.905 E36.32582
G1 X73.852 Y38.532 E36.36815
G1 X74.646 Y38.232 E36.4105
G1 X75.464 Y38.008 E36.45281
G1 X76.3 Y37.863 E36.49514
G1 X77.425 Y37.792 E36.55138
G1 X118.116 Y37.792 E38.58146
G1 X118.963 Y37.832 E38.62376
G1 X119.803 Y37.952 E38.6661
G1 X120.628 Y38.15 E38.70843
G1 X121.431 Y38.425 E38.75077
G1 X122.204 Y38.774 E38.79308
G1 X122.94 Y39.194 E38.83536
G1 X123.634 Y39.682 E38.87769
G1 X124.48 Y40.429 E38.93399
G1 X130.714 Y46.664 E39.37387
G1 X131.285 Y47.291 E39.41618
G1 X131.795 Y47.969 E39.45851
G1 X132.238 Y48.693 E39.50085
G1 X132.611 Y49.455 E39.54318
G1 X132.91 Y50.248 E39.58546
G1 X133.134 Y51.067 E39.62782
G1 X133.279 Y51.902 E39.6701
G1 X133.35 Y53.027 E39.72634
G1 X133.351 Y93.174 E41.72928
G1 X133.311 Y94.021 E41.77159
G1 X133.191 Y94.861 E41.81392
G1 X132.993 Y95.686 E41.85625
G1 X132.719 Y96.488 E41.89853
G1 X132.369 Y97.261 E41.94087
G1 X131.949 Y97.998 E41.98319
G1 X131.461 Y98.692 E42.02551
G1 X130.714 Y99.539 E42.08186
G1 X130.252 Y100.001 E42.11445
G1 X130.715 Y100.464 E42.14712
G1 X131.285 Y101.091 E42.1894
G1 X131.795 Y101.77 E42.23176
G1 X132.238 Y102.493 E42.27407
G1 X132.611 Y103.255 E42.31639
G1 X132.91 Y104.049 E42.35872
G1 X133.134 Y104.867 E42.40103
G1 X133.279 Y105.703 E42.44337
G1 X133.35 Y106.827 E42.49955
G1 X133.351 Y146.974 E44.5025
G1 X133.311 Y147.821 E44.5448
G1 X133.191 Y148.661 E44.58713
G1 X132.993 Y149.486 E44.62946
G1 X132.719 Y150.288 E44.67174
G1 X132.369 Y151.061 E44.71408
G1 X131.949 Y151.798 E44.7564
G1 X131.461 Y152.492 E44.79873
G1 X130.714 Y153.338 E44.85503
G1 X124.479 Y159.572 E45.29491
G1 X123.852 Y160.143 E45.33722
G1 X123.174 Y160.653 E45.37954
G1 X122.45 Y161.096 E45.42189
G1 X121.688 Y161.469 E45.46422
G1 X120.895 Y161.768 E45.5065
G1 X120.076 Y161.992 E45.54886
G1 X119.241 Y162.137 E45.59114
G1 X118.116 Y162.208 E45.64738
G1 X77.426 Y162.209 E47.67741
G1 X76.579 Y162.169 E47.71972
G1 X75.739 Y162.049 E47.76205
G1 X74.914 Y161.851 E47.80438
G1 X74.112 Y161.577 E47.84666
G1 X73.339 Y161.227 E47.88899
G1 X72.602 Y160.807 E47.93131
G1 X71.908 Y160.319 E47.97364
G1 X71.062 Y159.573 E48.02991
G1 X70.712 Y159.223 E48.05461
G1 X70.141 Y158.596 E48.09692
G1 X69.632 Y157.917 E48.13925
G1 X69.189 Y157.194 E48.18156
G1 X68.816 Y156.432 E48.22388
G1 X68.516 Y155.638 E48.26623
G1 X68.292 Y154.82 E48.30854
G1 X68.147 Y153.984 E48.35087
G1 X68.076 Y152.859 E48.40711
G1 X68.076 Y102.292 E50.92991
G1 X68.116 Y101.445 E50.97221
G1 X68.236 Y100.605 E51.01455
G1 X68.379 Y100.011 E51.04503
G1 X68.357 Y99.941 E51.04869
G1 X68.186 Y99.11 E51.09102
G1 X68.093 Y98.267 E51.13333
G1 X68.076 Y97.708 E51.16123
G1 X68.075 Y47.142 E53.68398
G1 X68.115 Y46.295 E53.72628
G1 X68.235 Y45.455 E53.76862
G1 X68.433 Y44.63 E53.81094
G1 X68.708 Y43.828 E53.85324
G1 X69.057 Y43.055 E53.89556
G1 X69.477 Y42.318 E53.93788
G0 F3600 X69.875 Y42.438
G1 F1800 X70.362 Y41.767 E53.97924
G1 X70.994 Y41.061 E54.02651
G1 X71.344 Y40.711 E54.05121
G1 X71.958 Y40.153 E54.0926
G1 X72.623 Y39.658 E54.13396
G1 X73.332 Y39.228 E54.17533
G1 X74.079 Y38.869 E54.21668
G1 X74.858 Y38.584 E54.25806
G1 X75.66 Y38.375 E54.29941
G1 X76.479 Y38.244 E54.34079
G1 X77.425 Y38.192 E54.38806
G1 X118.116 Y38.192 E56.41814
G1 X118.944 Y38.232 E56.4595
G1 X119.765 Y38.352 E56.50089
G1 X120.57 Y38.55 E56.54225
G1 X121.352 Y38.824 E56.58359
G1 X122.105 Y39.173 E56.625
G1 X122.82 Y39.593 E56.66637
G1 X123.491 Y40.079 E56.7077
G1 X124.198 Y40.711 E56.75501
G1 X130.432 Y46.946 E57.19489
G1 X130.989 Y47.56 E57.23625
G1 X131.485 Y48.225 E57.27764
G1 X131.914 Y48.935 E57.31902
G1 X132.273 Y49.682 E57.36037
G1 X132.558 Y50.461 E57.40176
G1 X132.767 Y51.263 E57.4431
G1 X132.898 Y52.082 E57.48448
G1 X132.95 Y53.027 E57.5317
G1 X132.951 Y93.174 E59.53464
G1 X132.911 Y94.002 E59.576
G1 X132.792 Y94.823 E59.61739
G1 X132.593 Y95.628 E59.65876
G1 X132.319 Y96.41 E59.7001
G1 X131.97 Y97.163 E59.74151
G1 X131.551 Y97.878 E59.78285
G1 X131.064 Y98.549 E59.82421
G1 X130.431 Y99.256 E59.87156
G1 X129.686 Y100.001 E59.92412
G1 X130.432 Y100.747 E59.97676
G1 X130.989 Y101.361 E60.01812
G1 X131.485 Y102.025 E60.05947
G1 X131.914 Y102.735 E60.10085
G1 X132.273 Y103.482 E60.1422
G1 X132.558 Y104.261 E60.18358
G1 X132.767 Y105.063 E60.22493
G1 X132.898 Y105.882 E60.26631
G1 X132.95 Y106.827 E60.31353
G1 X132.951 Y146.974 E62.31647
G1 X132.911 Y147.802 E62.35783
G1 X132.792 Y148.623 E62.39922
G1 X132.593 Y149.428 E62.44059
G1 X132.319 Y150.21 E62.48193
G1 X131.97 Y150.963 E62.52333
G1 X131.551 Y151.678 E62.56468
G1 X131.064 Y152.349 E62.60604
G1 X130.432 Y153.056 E62.65335
G1 X124.197 Y159.29 E63.09323
G1 X123.583 Y159.847 E63.13459
G1 X122.918 Y160.343 E63.17598
G1 X122.208 Y160.772 E63.21736
G1 X121.461 Y161.131 E63.25871
G1 X120.682 Y161.416 E63.3001
G1 X119.88 Y161.625 E63.34144
G1 X119.061 Y161.756 E63.38282
G1 X118.116 Y161.808 E63.43004
G1 X77.426 Y161.809 E65.46007
G1 X76.598 Y161.769 E65.50143
G1 X75.777 Y161.65 E65.54282
G1 X74.972 Y161.451 E65.58419
G1 X74.19 Y161.177 E65.62553
G1 X73.437 Y160.828 E65.66694
G1 X72.722 Y160.409 E65.70828
G1 X72.051 Y159.922 E65.74965
G1 X71.345 Y159.29 E65.79692
G1 X70.995 Y158.94 E65.82161
G1 X70.437 Y158.326 E65.86301
G1 X69.942 Y157.661 E65.90437
G1 X69.512 Y156.952 E65.94573
G1 X69.153 Y156.205 E65.98708
G1 X68.868 Y155.426 E66.02847
G1 X68.659 Y154.624 E66.06981
G1 X68.528 Y153.805 E66.11119
G1 X68.476 Y152.859 E66.15846
G1 X68.476 Y102.292 E68.68126
G1 X68.516 Y101.464 E68.72262
G1 X68.636 Y100.643 E68.76401
G1 X68.796 Y99.994 E68.79736
G1 X68.684 Y99.588 E68.81837
G1 X68.542 Y98.771 E68.85974
G1 X68.476 Y97.708 E68.91288
G1 X68.475 Y47.142 E71.43563
G1 X68.515 Y46.314 E71.47698
G1 X68.635 Y45.493 E71.51838
G1 X68.833 Y44.688 E71.55974
G1 X69.107 Y43.906 E71.60108
G1 X69.456 Y43.153 E71.64248
G1 X69.875 Y42.438 E71.68383
G0 F3600 X69.855 Y43.255
G1 F1800 X70.274 Y42.562 E71.72423
G1 X70.758 Y41.913 E71.76462
G1 X71.277 Y41.344 E71.80304
G1 X71.627 Y40.994 E71.82774
G1 X72.227 Y40.45 E71.86815
G1 X72.878 Y39.968 E71.90856
G1 X73.573 Y39.553 E71.94894
G1 X74.305 Y39.209 E71.98929
G1 X75.069 Y38.938 E72.02974
G1 X75.855 Y38.744 E72.07013
G1 X76.656 Y38.628 E72.11051
G1 X77.425 Y38.592 E72.14891
G1 X118.116 Y38.592 E74.179
G1 X118.925 Y38.632 E74.21941
G1 X119.726 Y38.752 E74.25981
G1 X120.511 Y38.949 E74.30019
G1 X121.272 Y39.224 E74.34056
G1 X122.003 Y39.572 E74.38095
G1 X122.697 Y39.991 E74.4214
G1 X123.345 Y40.476 E74.46178
G1 X123.915 Y40.994 E74.5002
G1 X130.149 Y47.229 E74.94008
G1 X130.692 Y47.829 E74.98046
G1 X131.174 Y48.48 E75.02087
G1 X131.589 Y49.175 E75.06125
G1 X131.934 Y49.908 E75.10167
G1 X132.204 Y50.671 E75.14205
G1 X132.398 Y51.457 E75.18244
G1 X132.514 Y52.259 E75.22287
G1 X132.55 Y53.027 E75.26123
G1 X132.551 Y93.174 E77.26417
G1 X132.511 Y93.983 E77.30458
G1 X132.392 Y94.783 E77.34493
G1 X132.194 Y95.568 E77.38532
G1 X131.919 Y96.33 E77.42574
G1 X131.571 Y97.061 E77.46613
G1 X131.152 Y97.754 E77.50653
G1 X130.668 Y98.403 E77.54692
G1 X130.149 Y98.973 E77.58538
G1 X129.121 Y100.001 E77.65791
G1 X130.149 Y101.029 E77.73044
G1 X130.692 Y101.63 E77.77085
G1 X131.174 Y102.28 E77.81122
G1 X131.589 Y102.976 E77.85165
G1 X131.934 Y103.708 E77.89202
G1 X132.204 Y104.471 E77.9324
G1 X132.398 Y105.258 E77.97284
G1 X132.514 Y106.059 E78.01322
G1 X132.55 Y106.827 E78.05158
G1 X132.551 Y146.974 E80.05452
G1 X132.511 Y147.783 E80.09493
G1 X132.392 Y148.583 E80.13528
G1 X132.194 Y149.368 E80.17567
G1 X131.919 Y150.13 E80.21609
G1 X131.571 Y150.861 E80.25648
G1 X131.152 Y151.554 E80.29688
G1 X130.668 Y152.203 E80.33727
G1 X130.149 Y152.773 E80.37573
G1 X123.914 Y159.007 E80.81561
G1 X123.314 Y159.55 E80.85598
G1 X122.663 Y160.032 E80.8964
G1 X121.968 Y160.447 E80.93678
G1 X121.235 Y160.792 E80.9772
G1 X120.472 Y161.062 E81.01758
G1 X119.686 Y161.256 E81.05797
G1 X118.884 Y161.372 E81.0984
G1 X118.116 Y161.408 E81.13675
G1 X77.426 Y161.409 E83.16679
G1 X76.617 Y161.369 E83.2072
G1 X75.817 Y161.25 E83.24755
G1 X75.032 Y161.052 E83.28794
G1 X74.27 Y160.777 E83.32835
G1 X73.539 Y160.429 E83.36875
G1 X72.846 Y160.01 E83.40915
G1 X72.197 Y159.526 E83.44954
G1 X71.628 Y159.007 E83.48796
G1 X71.278 Y158.657 E83.51266
G1 X70.734 Y158.057 E83.55306
G1 X70.252 Y157.406 E83.59347
G1 X69.837 Y156.711 E83.63386
G1 X69.493 Y155.979 E83.67421
G1 X69.222 Y155.215 E83.71465
G1 X69.028 Y154.429 E83.75504
G1 X68.912 Y153.628 E83.79542
G1 X68.876 Y152.859 E83.83383
G1 X68.876 Y102.292 E86.35663
G1 X68.916 Y101.483 E86.39704
G1 X69.036 Y100.682 E86.43745
G1 X69.206 Y100.005 E86.47227
G1 X69.02 Y99.239 E86.5116
G1 X68.908 Y98.437 E86.552
G1 X68.876 Y97.708 E86.5884
G1 X68.875 Y47.142 E89.11115
G1 X68.915 Y46.333 E89.15156
G1 X69.034 Y45.533 E89.19191
G1 X69.232 Y44.748 E89.2323
G1 X69.507 Y43.986 E89.27272
G1 X69.855 Y43.255 E89.31311
G0 F3600 X70.254 Y43.359
G1 F1800 X70.671 Y42.688 E89.35252
G1 X71.155 Y42.064 E89.39192
G1 X71.56 Y41.627 E89.42165
