;FLAVOR:Marlin
;TIME:14206
;Filament used: 9.28974m
;Layer height: 0.2
;MINX:42.241
;MINY:14.704
;MINZ:0.3
;MAXX:154.941
;MAXY:138.272
;MAXZ:39.5
;Generated with Cura_SteamEngine 4.8.0
M140 S90
M105
M190 S90
M104 S240
M105
M109 S240
M82 ;absolute extrusion mode
G21 ;metric values
G90 ;absolute positioning
M82 ;set extruder to absolute mode
M107 ;start with the fan off
G28 X0 Y0 ;move X/Y to min endstops
G28 Z0 ;move Z to min endstops
G1 Z15.0 F9000 ;move the platform down 15mm
G92 E0 ;zero the extruded length
G1 F200 E3 ;extrude 3mm of feed stock
G92 E0 ;zero the extruded length again
G1 F9000
;Put printing message on LCD screen
M117 Printing...
G92 E0
G92 E0
G1 F1500 E-6.5
;LAYER_COUNT:197
;LAYER:0
M107
G0 F3600 X42.902 Y31.79 Z0.3
;TYPE:SKIRT
G1 F1500 E0
G1 F1800 X43.353 Y31.254 E0.03495
G1 X43.627 Y30.972 E0.05456
G1 X58.401 Y16.197 E1.09699
G1 X58.888 Y15.726 E1.13079
G1 X59.3 Y15.383 E1.15753
G1 X59.759 Y15.105 E1.1843
G1 X60.254 Y14.898 E1.21107
G1 X60.774 Y14.767 E1.23783
G1 X61.417 Y14.711 E1.27003
G1 X61.904 Y14.704 E1.29433
G1 X150.686 Y14.704 E5.72368
G1 X151.384 Y14.714 E5.7585
G1 X151.918 Y14.762 E5.78525
G1 X152.439 Y14.888 E5.812
G1 X152.936 Y15.091 E5.83878
G1 X153.397 Y15.365 E5.86553
G1 X153.812 Y15.704 E5.89227
G1 X154.172 Y16.102 E5.91904
G1 X154.469 Y16.548 E5.94578
G1 X154.697 Y17.034 E5.97256
G1 X154.849 Y17.548 E5.9993
G1 X154.931 Y18.213 E6.03273
G1 X154.941 Y18.634 E6.05374
G1 X154.941 Y106.249 E10.42487
G1 X154.93 Y106.952 E10.45994
G1 X154.881 Y107.486 E10.4867
G1 X154.754 Y108.007 E10.51345
G1 X154.548 Y108.509 E10.54052
G1 X154.118 Y109.367 E10.5884
G1 X153.752 Y110.065 E10.62772
G1 X152.568 Y112.495 E10.76258
G1 X151.445 Y114.974 E10.89836
G1 X150.388 Y117.492 E11.0346
G1 X149.393 Y120.066 E11.17228
G1 X148.49 Y122.616 E11.30724
G1 X147.659 Y125.193 E11.44233
G1 X146.886 Y127.838 E11.57981
G1 X146.571 Y129.046 E11.64209
G1 X146.339 Y129.888 E11.68566
G1 X146.158 Y130.393 E11.71243
G1 X145.905 Y130.866 E11.73919
G1 X145.584 Y131.295 E11.76592
G1 X145.202 Y131.673 E11.79273
G1 X144.769 Y131.989 E11.81947
G1 X144.294 Y132.237 E11.84621
G1 X143.787 Y132.413 E11.87298
G1 X143.26 Y132.511 E11.89973
G1 X142.658 Y132.54 E11.92979
G1 X142.546 Y132.542 E11.93538
G1 X126.589 Y132.542 E12.73148
G1 X123.808 Y132.581 E12.87024
G1 X121.08 Y132.697 E13.00646
G1 X118.351 Y132.891 E13.14296
G1 X115.674 Y133.156 E13.27717
G1 X112.935 Y133.506 E13.41493
G1 X110.264 Y133.926 E13.54982
G1 X107.226 Y134.496 E13.70403
G1 X106.764 Y134.59 E13.72755
G1 X106.164 Y134.66 E13.75769
G1 X105.8 Y134.67 E13.77586
G1 X100.602 Y134.67 E14.03519
G1 X99.787 Y134.657 E14.07585
G1 X98.662 Y134.608 E14.13203
G1 X98.235 Y134.585 E14.15336
G1 X95.487 Y134.501 E14.29053
G1 X92.758 Y134.495 E14.42668
G1 X90.029 Y134.567 E14.56288
G1 X87.3 Y134.715 E14.69923
G1 X84.577 Y134.94 E14.83554
G1 X81.869 Y135.242 E14.97148
G1 X79.197 Y135.617 E15.10609
G1 X76.459 Y136.08 E15.24463
G1 X73.822 Y136.603 E15.37875
G1 X71.16 Y137.21 E15.51497
G1 X68.119 Y137.987 E15.67156
G1 X67.582 Y138.095 E15.69889
G1 X67.43 Y138.12 E15.70657
G1 X66.929 Y138.192 E15.73183
G1 X66.318 Y138.248 E15.76244
G1 X65.716 Y138.272 E15.79249
G1 X65.194 Y138.268 E15.81854
G1 X65.027 Y138.261 E15.82688
G1 X64.497 Y138.226 E15.85338
G1 X63.996 Y138.169 E15.87853
G1 X63.841 Y138.146 E15.88635
G1 X63.289 Y138.051 E15.91429
G1 X62.651 Y137.903 E15.94697
G1 X62.066 Y137.736 E15.97732
G1 X61.529 Y137.551 E16.00566
G1 X60.967 Y137.327 E16.03584
G1 X60.487 Y137.106 E16.0622
G1 X60.36 Y137.042 E16.0693
G1 X59.845 Y136.769 E16.09838
G1 X59.304 Y136.442 E16.12992
G1 X58.857 Y136.141 E16.1568
G1 X58.337 Y135.749 E16.18929
G1 X57.899 Y135.383 E16.21777
G1 X57.508 Y135.021 E16.24435
G1 X57.407 Y134.922 E16.25141
G1 X56.996 Y134.498 E16.28087
G1 X56.625 Y134.069 E16.30917
G1 X56.256 Y133.6 E16.33894
G1 X55.902 Y133.096 E16.36967
G1 X55.591 Y132.602 E16.39879
G1 X55.308 Y132.098 E16.42763
G1 X55.019 Y131.51 E16.46031
G1 X54.769 Y130.919 E16.49233
G1 X54.383 Y129.869 E16.54814
G1 X53.411 Y127.335 E16.68354
G1 X52.35 Y124.788 E16.8212
G1 X51.252 Y122.346 E16.95478
G1 X50.039 Y119.843 E17.09355
G1 X48.796 Y117.452 E17.22799
G1 X47.47 Y115.069 E17.36404
G1 X46.081 Y112.731 E17.49972
G1 X44.598 Y110.389 E17.63802
G1 X43.652 Y108.984 E17.72252
G1 X43.617 Y108.923 E17.72603
G1 X42.867 Y107.812 E17.79291
G1 X42.601 Y107.347 E17.81963
G1 X42.407 Y106.847 E17.84639
G1 X42.29 Y106.324 E17.87313
G1 X42.243 Y105.584 E17.91012
G1 X42.241 Y105.473 E17.91566
G1 X42.241 Y34.505 E21.45627
G1 X42.251 Y33.803 E21.49129
G1 X42.299 Y33.269 E21.51804
G1 X42.425 Y32.747 E21.54483
G1 X42.628 Y32.251 E21.57157
G1 X42.902 Y31.79 E21.59832
G0 F3600 X43.297 Y31.925
G1 F1800 X43.646 Y31.526 E21.62477
G1 X43.91 Y31.254 E21.64368
G1 X58.679 Y16.485 E22.68571
G1 X59.166 Y16.014 E22.71952
G1 X59.556 Y15.692 E22.74475
G1 X59.992 Y15.436 E22.76997
G1 X60.463 Y15.252 E22.7952
G1 X60.957 Y15.144 E22.82043
G1 X61.5 Y15.109 E22.84757
G1 X61.909 Y15.104 E22.86798
G1 X150.68 Y15.104 E27.29678
G1 X151.378 Y15.114 E27.33161
G1 X151.881 Y15.161 E27.35682
G1 X152.371 Y15.287 E27.38206
G1 X152.835 Y15.489 E27.4073
G1 X153.261 Y15.761 E27.43252
G1 X153.639 Y16.096 E27.45772
G1 X153.959 Y16.487 E27.48293
G1 X154.214 Y16.924 E27.50817
G1 X154.397 Y17.395 E27.53338
G1 X154.504 Y17.889 E27.5586
G1 X154.54 Y18.544 E27.59132
G1 X154.541 Y106.243 E31.96664
G1 X154.53 Y106.946 E32.00172
G1 X154.482 Y107.449 E32.02693
G1 X154.355 Y107.939 E32.05218
G1 X154.191 Y108.33 E32.07334
G1 X153.764 Y109.181 E32.12084
G1 X153.403 Y109.869 E32.1596
G1 X152.202 Y112.334 E32.2964
G1 X151.073 Y114.825 E32.43285
G1 X150.015 Y117.346 E32.56925
G1 X149.019 Y119.925 E32.70717
G1 X148.104 Y122.508 E32.84389
G1 X147.277 Y125.073 E32.97834
G1 X146.503 Y127.721 E33.11598
G1 X146.185 Y128.94 E33.17883
G1 X145.953 Y129.782 E33.2224
G1 X145.781 Y130.257 E33.24761
G1 X145.536 Y130.7 E33.27286
G1 X145.224 Y131.098 E33.29809
G1 X144.853 Y131.442 E33.32334
G1 X144.433 Y131.723 E33.34855
G1 X143.974 Y131.935 E33.37377
G1 X143.488 Y132.071 E33.39895
G1 X142.967 Y132.13 E33.42511
G1 X142.546 Y132.142 E33.44612
G1 X126.583 Y132.142 E34.24252
G1 X123.786 Y132.182 E34.38208
G1 X121.069 Y132.297 E34.51775
G1 X118.323 Y132.492 E34.65509
G1 X115.617 Y132.76 E34.79076
G1 X112.894 Y133.108 E34.92771
G1 X110.194 Y133.533 E35.06407
G1 X107.138 Y134.106 E35.21919
G1 X106.684 Y134.198 E35.24231
G1 X106.151 Y134.26 E35.26908
G1 X105.8 Y134.27 E35.28659
G1 X100.608 Y134.27 E35.54562
G1 X99.896 Y134.26 E35.58115
G1 X98.684 Y134.209 E35.64167
G1 X98.22 Y134.185 E35.66485
G1 X95.501 Y134.101 E35.80057
G1 X92.749 Y134.095 E35.93786
G1 X89.996 Y134.167 E36.07526
G1 X87.281 Y134.315 E36.21091
G1 X84.537 Y134.542 E36.34828
G1 X81.841 Y134.842 E36.48361
G1 X79.107 Y135.226 E36.62135
G1 X76.42 Y135.681 E36.75731
G1 X73.727 Y136.214 E36.89428
G1 X71.051 Y136.824 E37.03121
G1 X68.02 Y137.599 E37.18729
G1 X67.508 Y137.702 E37.21334
G1 X67.373 Y137.724 E37.22017
G1 X66.872 Y137.796 E37.24542
G1 X66.302 Y137.848 E37.27397
G1 X65.7 Y137.872 E37.30403
G1 X65.053 Y137.862 E37.33632
G1 X64.523 Y137.827 E37.36281
G1 X63.909 Y137.752 E37.39368
G1 X63.357 Y137.657 E37.42162
G1 X62.761 Y137.518 E37.45215
G1 X62.176 Y137.351 E37.4825
G1 X61.677 Y137.18 E37.50882
G1 X61.115 Y136.956 E37.539
G1 X60.661 Y136.746 E37.56396
G1 X60.547 Y136.688 E37.57034
G1 X60.032 Y136.415 E37.59942
G1 X59.528 Y136.11 E37.62881
G1 X59.081 Y135.809 E37.6557
G1 X58.593 Y135.443 E37.68613
G1 X58.155 Y135.077 E37.71461
G1 X57.784 Y134.732 E37.73988
G1 X57.694 Y134.643 E37.7462
G1 X57.283 Y134.219 E37.77566
G1 X56.939 Y133.822 E37.80186
G1 X56.57 Y133.353 E37.83164
G1 X56.241 Y132.883 E37.86026
G1 X55.93 Y132.389 E37.88938
G1 X55.662 Y131.912 E37.91668
G1 X55.378 Y131.334 E37.94881
G1 X55.145 Y130.781 E37.97875
G1 X54.774 Y129.773 E38.03233
G1 X53.777 Y127.175 E38.17117
G1 X52.725 Y124.649 E38.30768
G1 X51.605 Y122.158 E38.44394
G1 X50.396 Y119.664 E38.58222
G1 X49.146 Y117.259 E38.71744
G1 X47.816 Y114.868 E38.85394
G1 X46.42 Y112.519 E38.99027
G1 X44.951 Y110.198 E39.12731
G1 X43.983 Y108.761 E39.21375
G1 X43.946 Y108.695 E39.21752
G1 X43.199 Y107.589 E39.28411
G1 X42.95 Y107.149 E39.30933
G1 X42.773 Y106.675 E39.33457
G1 X42.674 Y106.179 E39.35981
G1 X42.643 Y105.571 E39.39018
G1 X42.641 Y105.473 E39.39507
G1 X42.641 Y34.51 E42.93543
G1 X42.651 Y33.808 E42.97045
G1 X42.698 Y33.305 E42.99566
G1 X42.824 Y32.815 E43.0209
G1 X43.026 Y32.352 E43.0461
G1 X43.297 Y31.925 E43.07133
G1 F1500 E36.57133
;MESH:Einsy-doors.stl
G0 F3600 X45.552 Y33.198
G0 X46.459 Y34.104
G0 X49.171 Y38.134
G0 X49.241 Y38.204
;TYPE:WALL-INNER
G1 F1500 E43.07133
G1 F900 X49.241 Y98.404 E46.07472
G1 X54.091 Y98.404 E46.31669
G1 X54.091 Y38.204 E49.32008
G1 X49.241 Y38.204 E49.56205
G0 F3600 X49.171 Y38.134
G0 X55.171 Y38.134
G0 X55.241 Y38.204
G1 F900 X55.241 Y98.404 E52.56544
G1 X60.091 Y98.404 E52.80741
G1 X60.091 Y38.204 E55.8108
G1 X55.241 Y38.204 E56.05276
G0 F3600 X55.171 Y38.134
G0 X61.171 Y28.134
G0 X61.241 Y28.204
G1 F900 X61.241 Y98.404 E59.55506
G1 X66.091 Y98.404 E59.79702
G1 X66.091 Y28.204 E63.29932
G1 X61.241 Y28.204 E63.54128
G0 F3600 X61.171 Y28.134
G0 X67.171 Y28.134
G0 X67.241 Y28.204
G1 F900 X67.241 Y98.404 E67.04358
G1 X72.091 Y98.404 E67.28554
G1 X72.091 Y28.204 E70.78784
G1 X67.241 Y28.204 E71.0298
G0 F3600 X67.171 Y28.134
G0 X73.171 Y28.134
G0 X73.241 Y28.204
G1 F900 X73.241 Y98.404 E74.5321
G1 X78.091 Y98.404 E74.77406
G1 X78.091 Y28.204 E78.27635
G1 X73.241 Y28.204 E78.51832
G0 F3600 X73.171 Y28.134
G0 X79.171 Y28.134
G0 X79.241 Y28.204
G1 F900 X79.241 Y98.404 E82.02061
G1 X84.091 Y98.404 E82.26258
G1 X84.091 Y28.204 E85.76487
G1 X79.241 Y28.204 E86.00684
G0 F3600 X79.171 Y28.134
G0 X85.171 Y28.134
G0 X85.241 Y28.204
G1 F900 X85.241 Y98.404 E89.50913
G1 X90.091 Y98.404 E89.7511
G1 X90.091 Y28.204 E93.25339
G1 X85.241 Y28.204 E93.49536
G0 F3600 X85.171 Y28.134
G0 X91.171 Y28.134
G0 X91.241 Y28.204
G1 F900 X91.241 Y98.404 E96.99765
G1 X96.091 Y98.404 E97.23962
G1 X96.091 Y28.204 E100.74191
G1 X91.241 Y28.204 E100.98388
G0 F3600 X91.171 Y28.134
G0 X97.171 Y28.134
G0 X97.241 Y28.204
G1 F900 X97.241 Y98.404 E104.48617
G1 X102.091 Y98.404 E104.72814
G1 X102.091 Y28.204 E108.23043
G1 X97.241 Y28.204 E108.4724
G0 F3600 X97.171 Y28.134
G0 X103.171 Y28.134
G0 X103.241 Y28.204
G1 F900 X103.241 Y98.404 E111.97469
G1 X108.091 Y98.404 E112.21666
G1 X108.091 Y28.204 E115.71895
G1 X103.241 Y28.204 E115.96092
G0 F3600 X103.171 Y28.134
G0 X109.171 Y28.134
G0 X109.241 Y28.204
G1 F900 X109.241 Y98.404 E119.46321
G1 X114.091 Y98.404 E119.70518
G1 X114.091 Y28.204 E123.20747
G1 X109.241 Y28.204 E123.44944
G0 F3600 X109.171 Y28.134
G0 X115.171 Y28.134
G0 X115.241 Y28.204
G1 F900 X115.241 Y98.404 E126.95173
G1 X120.091 Y98.404 E127.1937
G1 X120.091 Y28.204 E130.69599
G1 X115.241 Y28.204 E130.93796
G0 F3600 X115.171 Y28.134
G0 X121.171 Y28.134
G0 X121.241 Y28.204
G1 F900 X121.241 Y98.404 E134.44025
G1 X126.091 Y98.404 E134.68222
G1 X126.091 Y28.204 E138.18451
G1 X121.241 Y28.204 E138.42648
G0 F3600 X121.171 Y28.134
G0 X127.171 Y28.134
G0 X127.241 Y28.204
G1 F900 X127.241 Y98.404 E141.92877
G1 X132.091 Y98.404 E142.17074
G1 X132.091 Y28.204 E145.67303
G1 X127.241 Y28.204 E145.915
G0 F3600 X127.171 Y28.134
G0 X133.171 Y28.134
G0 X133.241 Y28.204
G1 F900 X133.241 Y98.404 E149.41729
G1 X138.091 Y98.404 E149.65926
G1 X138.091 Y28.204 E153.16155
G1 X133.241 Y28.204 E153.40352
G0 F3600 X133.171 Y28.134
G0 X139.171 Y28.134
G0 X139.241 Y28.204
G1 F900 X139.241 Y98.404 E156.90581
G1 X144.091 Y98.404 E157.14778
G1 X144.091 Y28.204 E160.65007
G1 X139.241 Y28.204 E160.89204
G0 F3600 X139.171 Y28.134
G0 X109.213 Y28.176
G0 X108.119 Y98.432
G0 X68.011 Y105.134
G0 X67.941 Y105.204
G1 F900 X46.441 Y105.204 E161.96468
G1 X46.441 Y34.097 E165.51222
G1 X61.634 Y18.904 E166.58417
G1 X150.741 Y18.904 E171.02973
G1 X150.741 Y106.3 E175.38994
G1 X67.941 Y106.3 E179.52085
G1 X67.941 Y105.204 E179.57552
G0 F3600 X67.541 Y105.604
;TYPE:WALL-OUTER
G1 F900 X46.041 Y105.604 E180.64816
G1 X46.041 Y33.931 E184.22394
G1 X61.468 Y18.504 E185.3124
G1 X151.141 Y18.504 E189.78621
G1 X151.141 Y106.7 E194.18632
G1 X67.541 Y106.7 E198.35714
G1 X67.541 Y105.604 E198.41182
G0 F3600 X67.341 Y105.604
G0 X67.341 Y105.104
G0 X61.213 Y98.432
G0 X60.119 Y38.176
G0 X55.213 Y38.176
G0 X55.641 Y38.604
G1 F900 X55.641 Y98.004 E201.3753
G1 X59.691 Y98.004 E201.57736
G1 X59.691 Y38.604 E204.54084
G1 X55.641 Y38.604 E204.74289
G0 F3600 X55.641 Y38.804
G0 X55.141 Y38.804
G0 X54.119 Y38.176
G0 X49.213 Y38.176
G0 X49.641 Y38.604
G1 F900 X49.641 Y98.004 E207.70637
G1 X53.691 Y98.004 E207.90842
G1 X53.691 Y38.604 E210.8719
G1 X49.641 Y38.604 E211.07396
G0 F3600 X49.641 Y38.804
G0 X49.141 Y38.804
G0 X61.141 Y28.604
G0 X61.641 Y28.604
G1 F900 X61.641 Y98.004 E214.53634
G1 X65.691 Y98.004 E214.73839
G1 X65.691 Y28.604 E218.20077
G1 X61.641 Y28.604 E218.40283
G0 F3600 X61.641 Y28.804
G0 X61.141 Y28.804
G0 X66.119 Y28.176
G0 X67.141 Y28.604
G0 X67.641 Y28.604
G1 F900 X67.641 Y98.004 E221.86521
G1 X71.691 Y98.004 E222.06726
G1 X71.691 Y28.604 E225.52964
G1 X67.641 Y28.604 E225.7317
G0 F3600 X67.641 Y28.804
G0 X67.141 Y28.804
G0 X72.119 Y28.176
G0 X73.141 Y28.604
G0 X73.641 Y28.604
G1 F900 X73.641 Y98.004 E229.19408
G1 X77.691 Y98.004 E229.39613
G1 X77.691 Y28.604 E232.85851
G1 X73.641 Y28.604 E233.06057
G0 F3600 X73.641 Y28.804
G0 X73.141 Y28.804
G0 X78.119 Y28.176
G0 X79.141 Y28.604
G0 X79.641 Y28.604
G1 F900 X79.641 Y98.004 E236.52295
G1 X83.691 Y98.004 E236.725
G1 X83.691 Y28.604 E240.18738
G1 X79.641 Y28.604 E240.38944
G0 F3600 X79.641 Y28.804
G0 X79.141 Y28.804
G0 X84.119 Y28.176
G0 X85.141 Y28.604
G0 X85.641 Y28.604
G1 F900 X85.641 Y98.004 E243.85182
G1 X89.691 Y98.004 E244.05388
G1 X89.691 Y28.604 E247.51626
G1 X85.641 Y28.604 E247.71831
G0 F3600 X85.641 Y28.804
G0 X85.141 Y28.804
G0 X90.119 Y28.176
G0 X91.141 Y28.604
G0 X91.641 Y28.604
G1 F900 X91.641 Y98.004 E251.18069
G1 X95.691 Y98.004 E251.38275
G1 X95.691 Y28.604 E254.84513
G1 X91.641 Y28.604 E255.04718
G0 F3600 X91.641 Y28.804
G0 X91.141 Y28.804
G0 X96.119 Y28.176
G0 X97.141 Y28.604
G0 X97.641 Y28.604
G1 F900 X97.641 Y98.004 E258.50956
G1 X101.691 Y98.004 E258.71162
G1 X101.691 Y28.604 E262.174
G1 X97.641 Y28.604 E262.37605
G0 F3600 X97.641 Y28.804
G0 X97.141 Y28.804
G0 X102.119 Y28.176
G0 X103.141 Y28.604
G0 X103.641 Y28.604
G1 F900 X103.641 Y98.004 E265.83843
G1 X107.691 Y98.004 E266.04049
G1 X107.691 Y28.604 E269.50287
G1 X103.641 Y28.604 E269.70492
G0 F3600 X103.641 Y28.804
G0 X103.141 Y28.804
G0 X108.119 Y28.176
G0 X109.141 Y28.604
G0 X109.641 Y28.604
G1 F900 X109.641 Y98.004 E273.1673
G1 X113.691 Y98.004 E273.36936
G1 X113.691 Y28.604 E276.83174
G1 X109.641 Y28.604 E277.03379
G0 F3600 X109.641 Y28.804
G0 X109.141 Y28.804
G0 X114.119 Y28.176
G0 X115.141 Y28.604
G0 X115.641 Y28.604
G1 F900 X115.641 Y98.004 E280.49617
G1 X119.691 Y98.004 E280.69823
G1 X119.691 Y28.604 E284.16061
G1 X115.641 Y28.604 E284.36266
G0 F3600 X115.641 Y28.804
G0 X115.141 Y28.804
G0 X120.119 Y28.176
G0 X121.141 Y28.604
G0 X121.641 Y28.604
G1 F900 X121.641 Y98.004 E287.82504
G1 X125.691 Y98.004 E288.0271
G1 X125.691 Y28.604 E291.48948
G1 X121.641 Y28.604 E291.69154
G0 F3600 X121.641 Y28.804
G0 X121.141 Y28.804
G0 X126.119 Y28.176
G0 X127.141 Y28.604
G0 X127.641 Y28.604
G1 F900 X127.641 Y98.004 E295.15392
G1 X131.691 Y98.004 E295.35597
G1 X131.691 Y28.604 E298.81835
G1 X127.641 Y28.604 E299.02041
G0 F3600 X127.641 Y28.804
G0 X127.141 Y28.804
G0 X132.119 Y28.176
G0 X133.141 Y28.604
G0 X133.641 Y28.604
G1 F900 X133.641 Y98.004 E302.48279
G1 X137.691 Y98.004 E302.68484
G1 X137.691 Y28.604 E306.14722
G1 X133.641 Y28.604 E306.34928
G0 F3600 X133.641 Y28.804
G0 X133.141 Y28.804
G0 X138.119 Y28.176
G0 X139.141 Y28.604
G0 X139.641 Y28.604
G1 F900 X139.641 Y98.004 E309.81166
G1 X143.691 Y98.004 E310.01371
G1 X143.691 Y28.604 E313.47609
G1 X139.641 Y28.604 E313.67815
G0 F3600 X139.641 Y28.804
G0 X139.141 Y28.804
G0 X138.851 Y27.814
;TYPE:SKIN
G1 F900 X138.851 Y98.794 E317.21935
G1 X144.481 Y98.794 E317.50024
G1 X144.481 Y27.814 E321.04144
G1 X138.851 Y27.814 E321.32232
