;FLAVOR:Marlin
;TIME:3739
;Filament used: 2.25403m
;Layer height: 0.2
;MINX:76.9
;MINY:54.3
;MINZ:0.3
;MAXX:123.1
;MAXY:128.128
;MAXZ:19.9
;Generated with Cura_SteamEngine 4.8.0
M140 S90
M105
M190 S90
M104 S240
M105
M109 S240
M82 ;absolute extrusion mode
G21 ;metric values
G90 ;absolute positioning
M82 ;set extruder to absolute mode
M107 ;start with the fan off
G28 X0 Y0 ;move X/Y to min endstops
G28 Z0 ;move Z to min endstops
G1 Z15.0 F9000 ;move the platform down 15mm
G92 E0 ;zero the extruded length
G1 F200 E3 ;extrude 3mm of feed stock
G92 E0 ;zero the extruded length again
G1 F9000
;Put printing message on LCD screen
M117 Printing...
G92 E0
G92 E0
G1 F1500 E-6.5
;LAYER_COUNT:99
;LAYER:0
M107
G0 F3600 X77.558 Y55.847 Z0.3
;TYPE:SKIRT
G1 F1500 E0
G1 F1800 X77.897 Y55.431 E0.02677
G1 X78.294 Y55.071 E0.05351
G1 X78.741 Y54.773 E0.08031
G1 X79.226 Y54.545 E0.10705
G1 X79.74 Y54.392 E0.1338
G1 X80.408 Y54.31 E0.16738
G1 X80.83 Y54.3 E0.18844
G1 X104.343 Y54.3 E1.36151
G1 X105.164 Y54.313 E1.40247
G1 X105.876 Y54.343 E1.43803
G1 X108.656 Y54.422 E1.57678
G1 X111.351 Y54.422 E1.71123
G1 X114.139 Y54.343 E1.85038
G1 X114.634 Y54.318 E1.87511
G1 X115.227 Y54.301 E1.90471
G1 X118.845 Y54.3 E2.08521
G1 X119.543 Y54.31 E2.12004
G1 X120.077 Y54.358 E2.14679
G1 X120.598 Y54.484 E2.17353
G1 X121.095 Y54.687 E2.20031
G1 X121.556 Y54.961 E2.22707
G1 X121.971 Y55.3 E2.2538
G1 X122.331 Y55.698 E2.28057
G1 X122.628 Y56.144 E2.30731
G1 X122.856 Y56.63 E2.33409
G1 X123.008 Y57.144 E2.36083
G1 X123.09 Y57.809 E2.39426
G1 X123.1 Y58.23 E2.41527
G1 X123.1 Y85.224 E3.76201
G1 X123.09 Y85.944 E3.79793
G1 X122.983 Y86.775 E3.83973
G1 X122.882 Y87.186 E3.86085
G1 X122.276 Y89.82 E3.99569
G1 X121.729 Y92.544 E4.1343
G1 X121.272 Y95.206 E4.26905
G1 X120.926 Y97.611 E4.39028
G1 X120.742 Y99.014 E4.46087
G1 X120.639 Y99.599 E4.49051
G1 X120.067 Y102.285 E4.62752
G1 X119.572 Y104.995 E4.76495
G1 X119.098 Y108.207 E4.92694
G1 X119.026 Y108.659 E4.94977
G1 X118.849 Y109.338 E4.98478
G1 X118.388 Y110.589 E5.0513
G1 X117.477 Y113.173 E5.18799
G1 X116.649 Y115.748 E5.32293
G1 X115.883 Y118.383 E5.45984
G1 X115.2 Y121.008 E5.59516
G1 X114.583 Y123.688 E5.73236
G1 X114.499 Y124.109 E5.75378
G1 X114.249 Y125.274 E5.81323
G1 X114.098 Y125.789 E5.84
G1 X113.872 Y126.275 E5.86674
G1 X113.576 Y126.723 E5.89353
G1 X113.217 Y127.121 E5.92027
G1 X112.803 Y127.462 E5.94703
G1 X112.343 Y127.737 E5.97377
G1 X111.847 Y127.941 E6.00052
G1 X111.326 Y128.069 E6.02729
G1 X110.508 Y128.127 E6.0682
G1 X107.605 Y128.128 E6.21303
G1 X106.906 Y128.118 E6.24791
G1 X106.203 Y128.038 E6.28321
G1 X105.62 Y127.902 E6.31308
G1 X104.992 Y127.714 E6.34578
G1 X103.446 Y127.229 E6.42662
G1 X100.855 Y126.497 E6.56094
G1 X98.155 Y125.816 E6.69987
G1 X95.5 Y125.223 E6.83559
G1 X92.847 Y124.713 E6.97037
G1 X92.448 Y124.646 E6.99055
G1 X91.602 Y124.489 E7.03348
G1 X90.922 Y124.322 E7.06842
G1 X90.389 Y124.14 E7.09651
G1 X89.852 Y123.907 E7.12572
G1 X89.372 Y123.653 E7.15281
G1 X88.868 Y123.329 E7.1827
G1 X88.421 Y122.989 E7.21072
G1 X87.993 Y122.605 E7.23941
G1 X87.574 Y122.159 E7.26994
G1 X87.222 Y121.716 E7.29817
G1 X86.924 Y121.276 E7.32468
G1 X86.628 Y120.751 E7.35475
G1 X86.39 Y120.236 E7.38306
G1 X86.331 Y120.083 E7.39124
G1 X85.874 Y118.814 E7.45853
G1 X84.915 Y116.262 E7.59454
G1 X84.134 Y114.353 E7.69744
G1 X83.886 Y113.685 E7.73299
G1 X83.485 Y112.332 E7.8034
G1 X83.422 Y112.109 E7.81496
G1 X82.593 Y109.465 E7.9532
G1 X81.721 Y106.936 E8.08666
G1 X80.334 Y103.322 E8.27979
G1 X79.785 Y101.972 E8.35249
G1 X79.557 Y101.337 E8.38615
G1 X79.4 Y100.836 E8.41235
G1 X79.244 Y100.265 E8.44188
G1 X79.13 Y99.768 E8.46732
G1 X78.988 Y98.985 E8.50702
G1 X78.936 Y98.616 E8.52561
G1 X78.792 Y97.327 E8.59032
G1 X78.453 Y94.632 E8.72583
G1 X78.033 Y91.925 E8.8625
G1 X77.542 Y89.252 E8.99809
G1 X77.08 Y87.101 E9.10785
G1 X76.979 Y86.597 E9.1335
G1 X76.91 Y85.991 E9.16392
G1 X76.9 Y85.57 E9.18493
G1 X76.9 Y58.525 E10.53421
G1 X76.909 Y57.86 E10.56739
G1 X76.957 Y57.326 E10.59414
G1 X77.083 Y56.805 E10.62089
G1 X77.285 Y56.308 E10.64765
G1 X77.558 Y55.847 E10.67438
G0 F3600 X77.954 Y55.982
G1 F1800 X78.289 Y55.604 E10.69958
G1 X78.68 Y55.283 E10.72482
G1 X79.117 Y55.028 E10.75006
G1 X79.588 Y54.844 E10.77529
G1 X80.082 Y54.738 E10.80049
G1 X80.74 Y54.701 E10.83337
G1 X104.338 Y54.7 E12.01068
G1 X105.056 Y54.71 E12.04651
G1 X105.853 Y54.743 E12.0863
G1 X108.645 Y54.822 E12.22565
G1 X111.362 Y54.822 E12.36121
G1 X114.126 Y54.744 E12.49916
G1 X114.645 Y54.718 E12.52508
G1 X115.238 Y54.701 E12.55468
G1 X118.839 Y54.7 E12.73433
G1 X119.537 Y54.71 E12.76916
G1 X120.04 Y54.757 E12.79437
G1 X120.53 Y54.883 E12.81961
G1 X120.994 Y55.085 E12.84485
G1 X121.42 Y55.357 E12.87007
G1 X121.798 Y55.692 E12.89527
G1 X122.118 Y56.083 E12.92048
G1 X122.373 Y56.52 E12.94572
G1 X122.556 Y56.991 E12.97093
G1 X122.663 Y57.485 E12.99615
G1 X122.699 Y58.14 E13.02887
G1 X122.7 Y85.218 E14.3798
G1 X122.69 Y85.938 E14.41572
G1 X122.595 Y86.68 E14.45304
G1 X122.493 Y87.091 E14.47417
G1 X121.879 Y89.757 E14.61066
G1 X121.343 Y92.429 E14.74662
G1 X120.875 Y95.159 E14.88481
G1 X120.536 Y97.514 E15.00351
G1 X120.331 Y99.065 E15.08157
G1 X120.243 Y99.536 E15.10547
G1 X119.676 Y102.202 E15.24145
G1 X119.179 Y104.922 E15.3794
G1 X118.703 Y108.144 E15.54189
G1 X118.631 Y108.596 E15.56473
G1 X118.474 Y109.199 E15.59581
G1 X118.028 Y110.409 E15.66015
G1 X117.095 Y113.055 E15.80013
G1 X116.267 Y115.629 E15.93502
G1 X115.498 Y118.275 E16.0725
G1 X114.809 Y120.923 E16.209
G1 X114.196 Y123.585 E16.34529
G1 X114.108 Y124.025 E16.36767
G1 X113.858 Y125.19 E16.42712
G1 X113.713 Y125.675 E16.45237
G1 X113.494 Y126.13 E16.47757
G1 X113.205 Y126.546 E16.50284
G1 X112.855 Y126.91 E16.52803
G1 X112.452 Y127.215 E16.55325
G1 X112.006 Y127.453 E16.57847
G1 X111.528 Y127.618 E16.60369
G1 X110.818 Y127.718 E16.63947
G1 X110.407 Y127.728 E16.65998
G1 X107.61 Y127.728 E16.79952
G1 X106.911 Y127.718 E16.8344
G1 X106.287 Y127.647 E16.86573
G1 X105.734 Y127.518 E16.89406
G1 X105.111 Y127.332 E16.9265
G1 X103.56 Y126.845 E17.0076
G1 X100.957 Y126.11 E17.14254
G1 X98.269 Y125.432 E17.28085
G1 X95.597 Y124.835 E17.41744
G1 X92.909 Y124.318 E17.554
G1 X92.52 Y124.253 E17.57368
G1 X91.685 Y124.098 E17.61605
G1 X91.024 Y123.935 E17.65002
G1 X90.533 Y123.767 E17.67591
G1 X90.014 Y123.541 E17.70415
G1 X89.429 Y123.218 E17.73749
G1 X88.79 Y122.775 E17.77628
G1 X88.262 Y122.309 E17.81141
G1 X87.878 Y121.898 E17.83947
G1 X87.537 Y121.469 E17.86682
G1 X87.187 Y120.935 E17.89867
G1 X86.819 Y120.226 E17.93852
G1 X86.707 Y119.947 E17.95352
G1 X86.265 Y118.72 E18.01859
G1 X85.279 Y116.095 E18.15848
G1 X84.507 Y114.207 E18.26025
G1 X84.27 Y113.571 E18.29411
G1 X83.87 Y112.224 E18.36421
G1 X83.8 Y111.977 E18.37702
G1 X82.974 Y109.344 E18.51469
G1 X82.095 Y106.797 E18.64912
G1 X80.693 Y103.142 E18.84442
G1 X80.125 Y101.743 E18.91975
G1 X79.935 Y101.206 E18.94817
G1 X79.784 Y100.727 E18.97322
G1 X79.632 Y100.166 E19.00222
G1 X79.451 Y99.324 E19.04519
G1 X79.346 Y98.666 E19.07843
G1 X79.195 Y97.326 E19.14571
G1 X78.847 Y94.558 E19.28489
G1 X78.429 Y91.863 E19.42095
G1 X77.938 Y89.193 E19.55639
G1 X77.472 Y87.023 E19.66712
G1 X77.371 Y86.519 E19.69277
G1 X77.31 Y85.98 E19.71983
G1 X77.3 Y85.57 E19.74029
G1 X77.3 Y58.531 E21.08927
G1 X77.309 Y57.866 E21.12245
G1 X77.356 Y57.362 E21.14771
G1 X77.482 Y56.873 E21.1729
G1 X77.683 Y56.409 E21.19813
G1 X77.954 Y55.982 E21.22336
G1 F1500 E14.72336
;MESH:fs-cover.stl
G0 F3600 X88.762 Y67.288
G0 X88.762 Y68.567
G0 X89.057 Y70.271
G0 X88.995 Y70.347
;TYPE:WALL-INNER
G1 F1500 E21.22336
G1 F900 X88.818 Y70.205 E21.23468
G1 X88.815 Y70.187 E21.23559
G1 X88.748 Y69.774 E21.25646
G1 X88.748 Y68.553 E21.31738
G1 X89.532 Y68.553 E21.35649
G1 X89.532 Y69.708 E21.41412
G1 X89.455 Y70.198 E21.43886
G1 X89.372 Y70.304 E21.44558
G1 X89.353 Y70.329 E21.44715
G1 X89.153 Y70.381 E21.45746
G1 X89.135 Y70.385 E21.45838
G1 X89.019 Y70.367 E21.46423
G1 X88.995 Y70.347 E21.46579
G0 F3600 X89.057 Y70.271
G0 X89.932 Y69.738
;TYPE:WALL-OUTER
G1 F900 X89.834 Y70.363 E21.49735
G1 X89.586 Y70.682 E21.51751
G1 X89.153 Y70.793 E21.53981
G1 X88.876 Y70.749 E21.55381
G1 X88.568 Y70.558 E21.57189
G1 X88.451 Y70.373 E21.58281
G1 X88.375 Y70.117 E21.59613
G1 X88.348 Y69.795 E21.61225
G1 X88.348 Y68.153 E21.69417
G1 X89.932 Y68.153 E21.7732
G1 X89.932 Y69.738 E21.85227
G0 F3600 X89.901 Y69.935
G0 X89.138 Y69.698
;TYPE:SKIN
G1 F900 X89.138 Y68.943 E21.88994
G1 X89.142 Y69.673 E21.92636
G1 X89.138 Y69.698 E21.92762
G0 F3600 X89.13 Y69.695
G1 F1500 E15.42762
G0 F3600 X88.466 Y71.512
G0 X88.159 Y76.561
G0 X88.187 Y75.754
G0 X87.589 Y75.193
;TYPE:WALL-INNER
G1 F1500 E21.92762
G1 F900 X87.866 Y75.377 E21.94421
G1 X87.468 Y75.377 E21.95143
G1 X87.468 Y75.113 E21.96039
G1 X87.589 Y75.193 E21.96104
G0 F3600 X89.081 Y75.731
G0 X89.133 Y75.737
;TYPE:WALL-OUTER
G1 F900 X89.207 Y75.782 E21.96536
G1 X89.133 Y75.782 E21.96542
G1 X88.598 Y75.777 E21.99212
G1 X88.481 Y75.777 E21.99795
G1 X87.068 Y75.777 E22.06845
G1 X87.068 Y74.74 E22.12018
G1 X87.068 Y74.739 E22.12023
G1 X87.068 Y74.368 E22.13874
G1 X87.378 Y74.573 E22.14911
G1 X88.682 Y75.438 E22.22718
G1 X88.779 Y75.502 E22.23249
G1 X89.133 Y75.737 E22.24144
G0 F3600 X89.207 Y75.782
G0 X89.133 Y75.782
G0 X89.093 Y75.782
G1 F1500 E15.74144
G0 F3600 X89.024 Y75.724
G0 X90.029 Y74.498
G0 X95.114 Y74.125
;TYPE:WALL-INNER
G1 F1500 E22.24144
G1 F900 X94.997 Y74.784 E22.27483
G1 X95.051 Y75.44 E22.30767
G1 X95.275 Y76.05 E22.34009
G1 X95.636 Y76.578 E22.372
G1 X96.136 Y77.002 E22.40471
G1 X96.725 Y77.286 E22.43733
G1 X97.384 Y77.403 E22.47072
G1 X98.039 Y77.349 E22.50351
G1 X98.65 Y77.125 E22.53598
G1 X99.177 Y76.764 E22.56785
G1 X99.602 Y76.264 E22.60058
G1 X99.886 Y75.676 E22.63316
G1 X100.002 Y75.031 E22.66586
G1 X99.95 Y74.362 E22.69934
G1 X99.725 Y73.748 E22.73196
G1 X99.348 Y73.204 E22.76498
G1 X98.862 Y72.797 E22.79661
G1 X98.275 Y72.514 E22.82912
G1 X97.616 Y72.397 E22.86251
G1 X96.96 Y72.451 E22.89535
G1 X96.348 Y72.675 E22.92786
G1 X95.804 Y73.052 E22.96088
G1 X95.397 Y73.54 E22.99259
G1 X95.114 Y74.125 E23.02501
G0 F3600 X98.746 Y67.058
G1 F900 X99.296 Y66.621 E23.06005
G1 X99.661 Y66.14 E23.09018
G1 X99.915 Y65.501 E23.12448
G1 X99.985 Y65.01 E23.14923
G1 X99.936 Y64.382 E23.18065
G1 X99.714 Y63.762 E23.21351
G1 X99.348 Y63.231 E23.24568
G1 X98.814 Y62.786 E23.28036
G1 X98.266 Y62.529 E23.31056
G1 X97.621 Y62.414 E23.34325
G1 X96.983 Y62.464 E23.37517
G1 X96.362 Y62.686 E23.40808
G1 X95.831 Y63.052 E23.44025
G1 X95.386 Y63.586 E23.47493
G1 X95.129 Y64.134 E23.50513
G1 X95.014 Y64.779 E23.53781
G1 X95.064 Y65.417 E23.56974
G1 X95.286 Y66.038 E23.60264
G1 X95.652 Y66.569 E23.63482
G1 X96.186 Y67.014 E23.6695
G1 X96.737 Y67.272 E23.69985
G1 X97.427 Y67.389 E23.73477
G1 X98.088 Y67.318 E23.76793
G1 X98.746 Y67.058 E23.80323
G0 F3600 X104.4 Y80.5
G1 F900 X115.6 Y80.5 E24.362
G1 X115.6 Y58.5 E25.45959
G1 X118.9 Y58.5 E25.62422
G1 X118.9 Y85.3 E26.96128
G1 X81.1 Y85.3 E28.84713
G1 X81.1 Y58.5 E30.18419
G1 X104.4 Y58.5 E31.34663
G1 X104.4 Y80.5 E32.44422
G0 F3600 X96.226 Y76.867
G0 X91.659 Y69.917
G0 X91.648 Y66.124
G0 X83.9 Y65.952
G1 F900 X83.9 Y68.553 E32.57398
G1 X86.46 Y68.553 E32.7017
G1 X86.46 Y69.268 E32.73737
G1 X83.9 Y70.826 E32.88688
G1 X83.9 Y73.097 E33.00018
G1 X84.525 Y73.436 E33.03566
G1 X84.968 Y73.152 E33.06191
G1 X85.275 Y72.956 E33.08008
G1 X85.275 Y73.32 E33.09028
G1 X85.275 Y73.321 E33.09033
G1 X85.275 Y75.377 E33.19291
G1 X83.9 Y75.377 E33.26151
G1 X83.9 Y77.85 E33.38488
G1 X85.275 Y77.85 E33.45348
G1 X85.275 Y78.743 E33.49804
G1 X87.468 Y78.743 E33.60744
G1 X87.468 Y77.85 E33.652
G1 X91.82 Y77.85 E33.86912
G1 X91.82 Y75.435 E33.9896
G1 X88.576 Y73.305 E34.18322
G1 X88.561 Y73.295 E34.18412
G1 X88.109 Y72.998 E34.2111
G1 X87.641 Y72.691 E34.23902
G1 X87.174 Y72.384 E34.2669
G1 X87.058 Y72.308 E34.27382
G1 X86.951 Y72.308 E34.27916
G1 X86.95 Y72.308 E34.27921
G1 X86.286 Y72.308 E34.31234
G1 X86.846 Y71.95 E34.32958
G1 X87.065 Y71.809 E34.34258
G1 X87.234 Y72.058 E34.35759
G1 X87.294 Y72.146 E34.36183
G1 X87.312 Y72.172 E34.36201
G1 X87.734 Y72.548 E34.37741
G1 X88.227 Y72.817 E34.39096
G1 X88.774 Y72.969 E34.41262
G1 X88.793 Y72.969 E34.41355
G1 X89.372 Y72.994 E34.44247
G1 X89.976 Y72.92 E34.47282
G1 X90.642 Y72.626 E34.50914
G1 X91.177 Y72.135 E34.54537
G1 X91.548 Y71.494 E34.58232
G1 X91.757 Y70.747 E34.62102
G1 X91.82 Y69.926 E34.6621
G1 X91.82 Y65.952 E34.86037
G1 X83.9 Y65.952 E35.2555
G0 F3600 X84.3 Y66.352
;TYPE:WALL-OUTER
G1 F900 X84.3 Y68.153 E35.34535
G1 X86.86 Y68.153 E35.47307
G1 X86.86 Y69.493 E35.53992
G1 X84.3 Y71.051 E35.68943
G1 X84.3 Y72.71 E35.7722
G1 X84.3 Y72.859 E35.77963
G1 X84.508 Y72.972 E35.79144
G1 X84.633 Y72.892 E35.79885
G1 X87.181 Y71.259 E35.94983
G1 X87.225 Y71.231 E35.95244
G1 X87.298 Y71.44 E35.95913
G1 X87.615 Y71.906 E35.98725
G1 X87.966 Y72.219 E36.01071
G1 X88.378 Y72.444 E36.03413
G1 X88.837 Y72.571 E36.05789
G1 X89.356 Y72.593 E36.08381
G1 X89.869 Y72.53 E36.1096
G1 X90.42 Y72.287 E36.13964
G1 X90.861 Y71.882 E36.16951
G1 X91.176 Y71.337 E36.20092
G1 X91.361 Y70.677 E36.23511
G1 X91.42 Y69.911 E36.27344
G1 X91.42 Y66.352 E36.451
G1 X84.3 Y66.352 E36.80622
G0 F3600 X84.3 Y66.552
G0 X84 Y66.552
G0 X84.066 Y72.997
G0 X85.498 Y72.599
G0 X85.675 Y72.708
G1 F900 X85.675 Y75.777 E36.95933
G1 X84.3 Y75.777 E37.02793
G1 X84.3 Y77.45 E37.1114
G1 X85.675 Y77.45 E37.18
G1 X85.675 Y78.343 E37.22455
G1 X87.068 Y78.343 E37.29405
G1 X87.068 Y77.45 E37.3386
G1 X91.42 Y77.45 E37.55572
G1 X91.42 Y75.651 E37.64547
G1 X86.938 Y72.708 E37.91298
G1 X85.675 Y72.708 E37.97599
G0 F3600 X85.675 Y72.908
G0 X85.625 Y72.633
G0 X86.899 Y72.472
G0 X95.229 Y74.119
G0 X95.498 Y74.249
G1 F900 X95.4 Y74.803 E38.00406
G1 X95.445 Y75.353 E38.03159
G1 X95.633 Y75.865 E38.0588
G1 X95.936 Y76.308 E38.08558
G1 X96.356 Y76.664 E38.11304
G1 X96.849 Y76.902 E38.14036
G1 X97.403 Y77 E38.16842
G1 X97.952 Y76.955 E38.19591
G1 X98.465 Y76.767 E38.22316
G1 X98.907 Y76.464 E38.2499
G1 X99.264 Y76.044 E38.2774
G1 X99.502 Y75.551 E38.30471
G1 X99.599 Y75.011 E38.33208
G1 X99.555 Y74.448 E38.36026
G1 X99.367 Y73.934 E38.38756
G1 X99.05 Y73.476 E38.41535
G1 X98.643 Y73.136 E38.44181
G1 X98.151 Y72.898 E38.46908
G1 X97.597 Y72.8 E38.49715
G1 X97.047 Y72.845 E38.52468
G1 X96.534 Y73.033 E38.55194
G1 X96.076 Y73.35 E38.57972
G1 X95.736 Y73.758 E38.60622
G1 X95.498 Y74.249 E38.63344
G0 F3600 X95.464 Y74.446
G0 X95.169 Y74.393
G0 X98.653 Y66.987
G0 X98.544 Y66.708
G1 F900 X99.008 Y66.339 E38.66302
G1 X99.309 Y65.942 E38.68788
G1 X99.526 Y65.397 E38.71714
G1 X99.583 Y64.997 E38.7373
G1 X99.541 Y64.467 E38.76382
G1 X99.355 Y63.946 E38.79142
G1 X99.05 Y63.503 E38.81826
G1 X98.598 Y63.126 E38.84762
G1 X98.144 Y62.914 E38.87262
G1 X97.601 Y62.817 E38.90014
G1 X97.067 Y62.859 E38.92686
G1 X96.546 Y63.045 E38.95446
G1 X96.103 Y63.35 E38.98129
G1 X95.726 Y63.802 E39.01066
G1 X95.514 Y64.256 E39.03566
G1 X95.417 Y64.799 E39.06318
G1 X95.459 Y65.333 E39.0899
G1 X95.645 Y65.854 E39.1175
G1 X95.95 Y66.297 E39.14433
G1 X96.402 Y66.674 E39.1737
G1 X96.857 Y66.887 E39.19876
G1 X97.439 Y66.985 E39.22821
G1 X97.992 Y66.926 E39.25595
G1 X98.544 Y66.708 E39.28556
G0 F3600 X98.7 Y66.584
G0 X98.886 Y66.819
G0 X104.5 Y80.1
G0 X104.8 Y80.1
G1 F900 X115.2 Y80.1 E39.80442
G1 X115.2 Y58.1 E40.902
G1 X119.3 Y58.1 E41.10655
G1 X119.3 Y85.7 E42.48352
G1 X80.7 Y85.7 E44.40929
G1 X80.7 Y58.1 E45.78626
G1 X104.8 Y58.1 E46.98861
G1 X104.8 Y80.1 E48.08619
G0 F3600 X105 Y80.1
G0 X105 Y80.4
G0 X104.01 Y80.89
;TYPE:SKIN
G1 F900 X115.99 Y80.89 E48.68388
G1 X115.99 Y58.89 E49.78146
G1 X118.51 Y58.89 E49.90719
G1 X118.51 Y84.91 E51.20533
G1 X81.49 Y84.91 E53.05226
G1 X81.49 Y58.89 E54.35041
G1 X104.01 Y58.89 E55.47393
G1 X104.01 Y80.89 E56.57152
G0 F3600 X99.932 Y76.479
G1 F900 X100.26 Y75.797 E56.60927
G1 X100.394 Y75.051 E56.64709
G1 X100.334 Y74.278 E56.68577
G1 X100.074 Y73.567 E56.72354
G1 X99.639 Y72.939 E56.76165
G1 X99.075 Y72.467 E56.79834
G1 X98.396 Y72.139 E56.83596
G1 X97.634 Y72.005 E56.87456
G1 X96.876 Y72.067 E56.91251
G1 X96.167 Y72.326 E56.95017
G1 X95.539 Y72.762 E56.98831
G1 X95.067 Y73.327 E57.02504
G1 X94.74 Y74.004 E57.06255
