;FLAVOR:Marlin
;TIME:4283
;Filament used: 2.81562m
;Layer height: 0.2
;MINX:80.75
;MINY:66.45
;MINZ:0.3
;MAXX:119.266
;MAXY:149.1
;MAXZ:12.9
;Generated with Cura_SteamEngine 4.8.0
M140 S90
M105
M190 S90
M104 S240
M105
M109 S240
M82 ;absolute extrusion mode
G21 ;metric values
G90 ;absolute positioning
M82 ;set extruder to absolute mode
M107 ;start with the fan off
G28 X0 Y0 ;move X/Y to min endstops
G28 Z0 ;move Z to min endstops
G1 Z15.0 F9000 ;move the platform down 15mm
G92 E0 ;zero the extruded length
G1 F200 E3 ;extrude 3mm of feed stock
G92 E0 ;zero the extruded length again
G1 F9000
;Put printing message on LCD screen
M117 Printing...
G92 E0
G92 E0
G1 F1500 E-6.5
;LAYER_COUNT:64
;LAYER:0
M107
G0 F3600 X82.402 Y67.577 Z0.3
;TYPE:SKIRT
G1 F1500 E0
G1 F1800 X82.8 Y67.218 E0.02674
G1 X83.246 Y66.921 E0.05347
G1 X83.732 Y66.693 E0.08026
G1 X84.246 Y66.541 E0.107
G1 X84.909 Y66.46 E0.14032
G1 X85.33 Y66.45 E0.16133
G1 X114.345 Y66.45 E1.60889
G1 X115.043 Y66.46 E1.64372
G1 X115.577 Y66.508 E1.67047
G1 X116.098 Y66.634 E1.69721
G1 X116.595 Y66.837 E1.724
G1 X117.056 Y67.111 E1.75075
G1 X117.471 Y67.45 E1.77749
G1 X117.831 Y67.848 E1.80426
G1 X118.128 Y68.294 E1.83099
G1 X118.356 Y68.78 E1.85778
G1 X118.508 Y69.294 E1.88452
G1 X118.59 Y69.959 E1.91794
G1 X118.6 Y70.38 E1.93895
G1 X118.6 Y87.294 E2.7828
G1 X118.59 Y87.991 E2.81757
G1 X118.581 Y88.192 E2.82761
G1 X118.526 Y88.966 E2.86632
G1 X118.41 Y90.333 E2.93477
G1 X118.257 Y93.029 E3.06949
G1 X118.179 Y95.794 E3.20749
G1 X118.179 Y98.488 E3.3419
G1 X118.257 Y101.253 E3.4799
G1 X118.41 Y103.946 E3.61447
G1 X118.642 Y106.667 E3.75071
G1 X118.95 Y109.389 E3.88738
G1 X119.15 Y110.856 E3.96125
G1 X119.255 Y111.761 E4.0067
G1 X119.266 Y112.26 E4.0316
G1 X119.266 Y141.902 E5.51045
G1 X119.256 Y142.628 E5.54667
G1 X119.208 Y143.162 E5.57342
G1 X119.082 Y143.683 E5.60016
G1 X118.88 Y144.18 E5.62693
G1 X118.606 Y144.641 E5.65368
G1 X118.267 Y145.056 E5.68041
G1 X117.87 Y145.417 E5.70719
G1 X117.234 Y145.814 E5.74459
G1 X116.48 Y146.181 E5.78643
G1 X111.563 Y148.473 E6.05708
G1 X110.917 Y148.763 E6.09241
G1 X110.413 Y148.946 E6.11916
G1 X109.887 Y149.051 E6.14592
G1 X109.517 Y149.078 E6.16443
G1 X108.426 Y149.1 E6.21887
G1 X91.232 Y149.1 E7.07668
G1 X90.553 Y149.09 E7.11056
G1 X90.019 Y149.042 E7.13731
G1 X89.498 Y148.915 E7.16406
G1 X89.15 Y148.783 E7.18263
G1 X88.153 Y148.341 E7.23704
G1 X83.408 Y146.129 E7.49823
G1 X82.79 Y145.829 E7.5325
G1 X82.326 Y145.559 E7.55928
G1 X81.908 Y145.224 E7.58601
G1 X81.544 Y144.83 E7.61277
G1 X81.242 Y144.386 E7.63956
G1 X81.01 Y143.903 E7.66629
G1 X80.852 Y143.39 E7.69307
G1 X80.762 Y142.644 E7.73056
G1 X80.75 Y141.84 E7.77068
G1 X80.75 Y112.502 E9.23436
G1 X80.761 Y111.784 E9.27018
G1 X80.79 Y111.382 E9.29029
G1 X80.898 Y110.546 E9.33234
G1 X81.039 Y109.568 E9.38164
G1 X81.353 Y106.827 E9.51928
G1 X81.587 Y104.104 E9.65564
G1 X81.745 Y101.375 E9.79201
G1 X81.823 Y98.686 E9.92622
G1 X81.826 Y95.953 E10.06257
G1 X81.751 Y93.187 E10.20062
G1 X81.603 Y90.523 E10.33373
G1 X81.515 Y89.502 E10.38486
G1 X81.423 Y88.261 E10.44694
G1 X81.413 Y88.051 E10.45743
G1 X81.4 Y87.212 E10.4993
G1 X81.4 Y70.67 E11.32458
G1 X81.41 Y70.005 E11.35776
G1 X81.458 Y69.471 E11.38451
G1 X81.585 Y68.95 E11.41126
G1 X81.788 Y68.453 E11.43805
G1 X82.062 Y67.992 E11.4648
G1 X82.402 Y67.577 E11.49157
G0 F3600 X82.794 Y67.751
G1 F1800 X83.185 Y67.43 E11.51681
G1 X83.622 Y67.176 E11.54202
G1 X84.093 Y66.993 E11.56723
G1 X84.588 Y66.887 E11.59249
G1 X85.24 Y66.851 E11.62507
G1 X114.339 Y66.85 E13.07682
G1 X115.037 Y66.86 E13.11165
G1 X115.54 Y66.907 E13.13685
G1 X116.03 Y67.033 E13.1621
G1 X116.494 Y67.235 E13.18734
G1 X116.92 Y67.507 E13.21256
G1 X117.298 Y67.842 E13.23776
G1 X117.618 Y68.233 E13.26296
G1 X117.873 Y68.67 E13.28821
G1 X118.056 Y69.141 E13.31342
G1 X118.163 Y69.635 E13.33863
G1 X118.199 Y70.29 E13.37136
G1 X118.2 Y87.288 E14.2194
G1 X118.19 Y87.985 E14.25417
G1 X118.182 Y88.164 E14.26311
G1 X118.128 Y88.933 E14.30157
G1 X118.011 Y90.315 E14.37077
G1 X117.857 Y93.03 E14.50644
G1 X117.779 Y95.783 E14.64384
G1 X117.779 Y98.5 E14.77939
G1 X117.857 Y101.252 E14.91674
G1 X118.013 Y103.999 E15.05401
G1 X118.239 Y106.663 E15.1874
G1 X118.555 Y109.444 E15.32704
G1 X118.757 Y110.936 E15.40215
G1 X118.855 Y111.77 E15.44405
G1 X118.866 Y112.26 E15.4685
G1 X118.866 Y141.896 E16.94704
G1 X118.856 Y142.622 E16.98327
G1 X118.809 Y143.125 E17.00847
G1 X118.683 Y143.615 E17.03371
G1 X118.482 Y144.079 E17.05894
G1 X118.21 Y144.505 E17.08416
G1 X117.875 Y144.884 E17.10939
G1 X117.484 Y145.204 E17.1346
G1 X117.059 Y145.454 E17.1592
G1 X116.311 Y145.818 E17.2007
G1 X111.4 Y148.108 E17.47104
G1 X110.754 Y148.398 E17.50637
G1 X110.277 Y148.568 E17.53163
G1 X109.78 Y148.661 E17.55686
G1 X109.509 Y148.678 E17.5704
G1 X108.426 Y148.7 E17.62445
G1 X91.238 Y148.7 E18.48196
G1 X90.559 Y148.69 E18.51584
G1 X90.056 Y148.642 E18.54105
G1 X89.566 Y148.516 E18.56629
G1 X89.312 Y148.417 E18.57989
G1 X88.322 Y147.978 E18.63392
G1 X83.583 Y145.769 E18.89477
G1 X82.965 Y145.469 E18.92905
G1 X82.529 Y145.213 E18.95427
G1 X82.138 Y144.891 E18.97954
G1 X81.804 Y144.512 E19.00474
G1 X81.533 Y144.085 E19.02997
G1 X81.333 Y143.621 E19.05518
G1 X81.208 Y143.131 E19.08041
G1 X81.162 Y142.638 E19.10511
G1 X81.15 Y141.834 E19.14523
G1 X81.15 Y112.508 E20.60831
G1 X81.161 Y111.79 E20.64414
G1 X81.187 Y111.433 E20.66199
G1 X81.294 Y110.603 E20.70375
G1 X81.438 Y109.6 E20.7543
G1 X81.751 Y106.874 E20.89119
G1 X81.985 Y104.158 E21.0272
G1 X82.143 Y101.412 E21.16442
G1 X82.223 Y98.661 E21.30173
G1 X82.226 Y95.942 E21.43738
G1 X82.151 Y93.189 E21.57478
G1 X82 Y90.468 E21.71074
G1 X81.914 Y89.473 E21.76056
G1 X81.822 Y88.232 E21.82265
G1 X81.813 Y88.045 E21.83199
G1 X81.8 Y87.206 E21.87385
G1 X81.8 Y70.676 E22.69854
G1 X81.81 Y70.011 E22.73172
G1 X81.858 Y69.508 E22.75693
G1 X81.984 Y69.018 E22.78217
G1 X82.186 Y68.554 E22.80741
G1 X82.458 Y68.128 E22.83263
G1 X82.794 Y67.751 E22.85783
G1 F1500 E16.35783
;MESH:heatbed-cable-cover-clip.stl
G0 F3600 X85.414 Y69.385
G0 X85.414 Y70.464
G0 X85.769 Y86.393
G0 X89 Y88.467
;TYPE:WALL-INNER
G1 F1500 E22.85783
G1 F900 X92.392 Y86.507 E23.05327
G1 X92.392 Y82.593 E23.24854
G1 X89 Y80.633 E23.44399
G1 X85.901 Y82.424 E23.62256
G1 X85.608 Y82.593 E23.63944
G1 X85.608 Y86.507 E23.83471
G1 X85.901 Y86.676 E23.85158
G1 X89 Y88.467 E24.03016
G0 F3600 X111 Y88.467
G1 F900 X114.099 Y86.676 E24.20873
G1 X114.392 Y86.507 E24.2256
G1 X114.392 Y82.593 E24.42087
G1 X114.099 Y82.424 E24.43775
G1 X111 Y80.633 E24.61632
G1 X107.608 Y82.593 E24.81177
G1 X107.608 Y86.507 E25.00704
G1 X111 Y88.467 E25.20249
G0 F3600 X114.231 Y86.393
G0 X114.4 Y82.254
G1 F900 X114.4 Y82.593 E25.21224
G1 X114.4 Y86.507 E25.21614
G1 X114.4 Y86.846 E25.22589
G1 X114.4 Y87.567 E25.26186
G1 X109.288 Y89.95 E25.54325
G1 X90.712 Y89.95 E26.47001
G1 X85.6 Y87.567 E26.7514
G1 X85.6 Y86.846 E26.78737
G1 X85.6 Y86.507 E26.79712
G1 X85.6 Y82.593 E26.80103
G1 X85.6 Y82.254 E26.81078
G1 X85.6 Y70.65 E27.3897
G1 X114.4 Y70.65 E28.82654
G1 X114.4 Y82.254 E29.40547
G0 F3600 X114.516 Y87.642
G0 X114.8 Y87.822
;TYPE:WALL-OUTER
G1 F900 X109.378 Y90.35 E29.70393
G1 X90.622 Y90.35 E30.63967
G1 X85.2 Y87.822 E30.93813
G1 X85.2 Y70.25 E31.8148
G1 X114.8 Y70.25 E33.29155
G1 X114.8 Y87.822 E34.16822
G0 F3600 X114.619 Y87.906
G0 X114.493 Y87.635
G0 X110.849 Y88.264
G0 X111 Y88.005
G1 F900 X113.992 Y86.276 E34.34063
G1 X113.992 Y82.824 E34.51285
G1 X111 Y81.095 E34.68525
G1 X108.008 Y82.824 E34.85765
G1 X108.008 Y86.276 E35.02987
G1 X111 Y88.005 E35.20228
G0 F3600 X111.173 Y87.905
G0 X111.323 Y88.165
G0 X88.849 Y88.264
G0 X89 Y88.005
G1 F900 X91.992 Y86.276 E35.37468
G1 X91.992 Y82.824 E35.5469
G1 X89 Y81.095 E35.7193
G1 X86.008 Y82.824 E35.89171
G1 X86.008 Y86.276 E36.06393
G1 X89 Y88.005 E36.23633
G0 F3600 X89.173 Y87.905
G0 X89.187 Y88.809
;TYPE:SKIN
G1 F900 X92.782 Y86.732 E36.44347
G1 X92.782 Y82.368 E36.66119
G1 X89 Y80.183 E36.8791
G1 X85.99 Y81.921 E37.05251
G1 X85.99 Y71.04 E37.59536
G1 X114.01 Y71.04 E38.99328
G1 X114.01 Y81.921 E39.53614
G1 X111 Y80.183 E39.70954
G1 X107.218 Y82.368 E39.92746
G1 X107.218 Y86.732 E40.14518
G1 X110.813 Y88.809 E40.35231
G1 X109.203 Y89.56 E40.44095
G1 X90.797 Y89.56 E41.35922
G1 X89.187 Y88.809 E41.44786
G0 F3600 X87.252 Y87.908
G1 F900 X85.99 Y87.319 E41.51734
G1 X85.99 Y87.179 E41.52432
G1 X87.252 Y87.908 E41.59703
G0 F3600 X89 Y88.276
G0 X111 Y88.276
G0 X112.748 Y87.908
G1 F900 X114.01 Y87.179 E41.66974
G1 X114.01 Y87.319 E41.67673
G1 X112.748 Y87.908 E41.74621
G0 F3600 X114.231 Y86.393
G0 X114.231 Y83.408
G0 X113.829 Y71.402
G1 F900 X113.646 Y71.22 E41.75909
G0 F3600 X113.081 Y71.22
G1 F900 X113.829 Y71.968 E41.81186
G0 F3600 X113.829 Y72.534
G1 F900 X112.515 Y71.22 E41.90457
G0 F3600 X111.949 Y71.22
G1 F900 X113.829 Y73.099 E42.03718
G0 F3600 X113.829 Y73.665
G1 F900 X111.384 Y71.22 E42.20969
G0 F3600 X110.818 Y71.22
G1 F900 X113.829 Y74.231 E42.42213
G0 F3600 X113.829 Y74.797
G1 F900 X110.252 Y71.22 E42.67451
G0 F3600 X109.687 Y71.22
G1 F900 X113.829 Y75.362 E42.96675
G0 F3600 X113.829 Y75.928
G1 F900 X109.121 Y71.22 E43.29892
G0 F3600 X108.555 Y71.22
G1 F900 X113.829 Y76.494 E43.67103
G0 F3600 X113.829 Y77.059
G1 F900 X107.99 Y71.22 E44.08301
G0 F3600 X107.424 Y71.22
G1 F900 X113.829 Y77.625 E44.53491
G0 F3600 X113.829 Y78.191
G1 F900 X106.858 Y71.22 E45.02675
G0 F3600 X106.292 Y71.22
G1 F900 X113.829 Y78.756 E45.5585
G0 F3600 X113.829 Y79.322
G1 F900 X105.727 Y71.22 E46.13014
G0 F3600 X105.161 Y71.22
G1 F900 X113.829 Y79.888 E46.74171
G0 F3600 X113.829 Y80.453
G1 F900 X104.595 Y71.22 E47.39318
G0 F3600 X104.03 Y71.22
G1 F900 X113.829 Y81.019 E48.08455
G0 F3600 X113.829 Y81.585
G1 F900 X103.464 Y71.22 E48.81586
G0 F3600 X102.898 Y71.22
G1 F900 X112.547 Y80.868 E49.49662
G1 X112.617 Y80.938
G0 F3600 X111.209 Y80.096
G1 F900 X102.333 Y71.22 E50.12287
G0 F3600 X101.767 Y71.22
G1 F900 X110.696 Y80.149 E50.75285
G0 F3600 X110.337 Y80.356
G1 F900 X101.201 Y71.22 E51.39745
G0 F3600 X100.636 Y71.22
G1 F900 X109.979 Y80.563 E52.05665
G0 F3600 X109.62 Y80.77
G1 F900 X100.07 Y71.22 E52.73045
G0 F3600 X99.504 Y71.22
G1 F900 X109.262 Y80.977 E53.4189
G0 F3600 X108.903 Y81.185
G1 F900 X98.939 Y71.22 E54.12195
G0 F3600 X98.373 Y71.22
G1 F900 X108.545 Y81.392 E54.83963
G0 F3600 X108.186 Y81.599
G1 F900 X97.807 Y71.22 E55.57193
G0 F3600 X97.242 Y71.22
G1 F900 X107.828 Y81.806 E56.31883
G0 F3600 X107.469 Y82.013
G1 F900 X96.676 Y71.22 E57.08033
G0 F3600 X96.11 Y71.22
G1 F900 X107.111 Y82.22 E57.85648
G0 F3600 X107.036 Y82.712
G1 F900 X95.544 Y71.22 E58.6673
G0 F3600 X94.979 Y71.22
G1 F900 X107.036 Y83.278 E59.51802
G0 F3600 X107.036 Y83.843
G1 F900 X94.413 Y71.22 E60.40864
G0 F3600 X93.847 Y71.22
G1 F900 X107.036 Y84.409 E61.3392
G0 F3600 X107.036 Y84.975
G1 F900 X93.282 Y71.22 E62.30965
G0 F3600 X92.716 Y71.22
G1 F900 X107.036 Y85.54 E63.32001
G0 F3600 X107.036 Y86.106
G1 F900 X92.15 Y71.22 E64.37029
G0 F3600 X91.585 Y71.22
G1 F900 X107.036 Y86.672 E65.46048
G0 F3600 X107.425 Y87.061
G1 F900 X109.559 Y89.194 E65.61101
G0 F3600 X109.944 Y89.014
G1 F900 X108.764 Y87.833 E65.6943
G1 X108.694 Y87.763
G0 F3600 X110.103 Y88.607
G1 F900 X110.33 Y88.834 E65.71032
G0 F3600 X109.173 Y89.374
G1 F900 X91.019 Y71.22 E66.99118
G0 F3600 X90.453 Y71.22
G1 F900 X108.613 Y89.379 E68.27243
G0 F3600 X108.047 Y89.379
G1 F900 X89.888 Y71.22 E69.55365
G0 F3600 X89.322 Y71.22
G1 F900 X107.481 Y89.379 E70.83486
G0 F3600 X106.915 Y89.379
G1 F900 X88.756 Y71.22 E72.11608
G0 F3600 X88.191 Y71.22
G1 F900 X106.35 Y89.379 E73.39729
G0 F3600 X105.784 Y89.379
G1 F900 X87.625 Y71.22 E74.67851
G0 F3600 X87.059 Y71.22
G1 F900 X105.218 Y89.379 E75.95972
G0 F3600 X104.653 Y89.379
G1 F900 X86.494 Y71.22 E77.24094
G0 F3600 X86.169 Y71.461
G1 F900 X104.087 Y89.379 E78.50515
G0 F3600 X103.521 Y89.379
G1 F900 X86.169 Y72.027 E79.72943
G0 F3600 X86.169 Y72.592
G1 F900 X102.956 Y89.379 E80.91384
G0 F3600 X102.39 Y89.379
G1 F900 X86.169 Y73.158 E82.05832
G0 F3600 X86.169 Y73.724
G1 F900 X101.824 Y89.379 E83.16287
G0 F3600 X101.259 Y89.379
G1 F900 X86.169 Y74.29 E84.22751
G0 F3600 X86.169 Y74.855
G1 F900 X100.693 Y89.379 E85.25226
G0 F3600 X100.127 Y89.379
G1 F900 X86.169 Y75.421 E86.23707
G0 F3600 X86.169 Y75.987
G1 F900 X91.742 Y81.559 E86.63024
G1 X91.812 Y81.629
G0 F3600 X90.402 Y80.785
G1 F900 X86.169 Y76.552 E86.9289
G0 F3600 X86.169 Y77.118
G1 F900 X89.062 Y80.011 E87.13302
G0 F3600 X88.657 Y80.172
G1 F900 X86.169 Y77.684 E87.30856
G0 F3600 X86.169 Y78.249
G1 F900 X88.298 Y80.378 E87.45877
G0 F3600 X87.94 Y80.586
G1 F900 X86.169 Y78.815 E87.58373
G0 F3600 X86.169 Y79.381
G1 F900 X87.581 Y80.793 E87.68335
G0 F3600 X87.223 Y81
G1 F900 X86.169 Y79.946 E87.75772
G0 F3600 X86.169 Y80.512
G1 F900 X86.864 Y81.207 E87.80675
G0 F3600 X86.506 Y81.414
G1 F900 X86.169 Y81.078 E87.83049
G0 F3600 X89 Y80.824
G0 X92.961 Y82.778
G1 F900 X99.562 Y89.379 E88.29623
G0 F3600 X98.996 Y89.379
G1 F900 X92.961 Y83.344 E88.72203
G0 F3600 X92.961 Y83.91
G1 F900 X98.43 Y89.379 E89.1079
G0 F3600 X97.864 Y89.379
G1 F900 X92.961 Y84.475 E89.45387
G0 F3600 X92.961 Y85.041
G1 F900 X97.299 Y89.379 E89.75994
G0 F3600 X96.733 Y89.379
G1 F900 X92.961 Y85.607 E90.02607
G0 F3600 X92.961 Y86.172
G1 F900 X96.167 Y89.379 E90.25231
G0 F3600 X95.602 Y89.379
G1 F900 X92.961 Y86.738 E90.43864
G0 F3600 X92.664 Y87.008
G1 F900 X95.036 Y89.379 E90.60597
G0 F3600 X94.47 Y89.379
G1 F900 X92.306 Y87.215 E90.75865
G0 F3600 X91.947 Y87.422
G1 F900 X93.905 Y89.379 E90.89676
G0 F3600 X93.339 Y89.379
G1 F900 X91.588 Y87.628 E91.0203
G0 F3600 X91.23 Y87.836
G1 F900 X92.773 Y89.379 E91.12917
G0 F3600 X92.208 Y89.379
G1 F900 X90.871 Y88.043 E91.22347
G0 F3600 X90.513 Y88.25
G1 F900 X91.642 Y89.379 E91.30312
G0 F3600 X91.076 Y89.379
G1 F900 X90.154 Y88.457 E91.36818
G0 F3600 X89.796 Y88.664
G1 F900 X90.226 Y89.095 E91.39855
G0 F3600 X88.986 Y88.703
;TYPE:SKIN
G1 F900 X88.899 Y88.616 E91.40162
G0 F3600 X88.914 Y88.914
G1 F900 X88.229 Y88.229 E91.42579
G0 F3600 X87.852 Y88.418
G1 F900 X87.427 Y87.993 E91.44078
G0 F3600 X87.558 Y87.841
G1 F900 X88.383 Y88.666 E91.46988
G0 F3600 X111.011 Y88.666
G1 F900 X111.203 Y88.858 E91.47666
G0 F3600 X111.396 Y88.768
G1 F900 X111.191 Y88.563 E91.48389
G0 F3600 X111.37 Y88.46
G1 F900 X111.588 Y88.678 E91.49158
G0 F3600 X111.781 Y88.588
G1 F900 X111.549 Y88.356 E91.49976
G0 F3600 X111.729 Y88.253
G1 F900 X111.974 Y88.498 E91.50841
G0 F3600 X112.167 Y88.408
G1 F900 X111.908 Y88.149 E91.51754
G0 F3600 X112.087 Y88.046
G1 F900 X112.359 Y88.318 E91.52714
G0 F3600 X112.553 Y88.228
G1 F900 X112.267 Y87.942 E91.53723
G0 F3600 X112.446 Y87.838
G1 F900 X112.538 Y87.931 E91.54049
G1 F1500 E85.04049
;MESH:Heatbed-cable-clip.stl
G0 F3600 X111.293 Y88.21
G0 X90.671 Y90.131
G0 X90.671 Y91.92
G0 X89.957 Y96.3
G0 X90.069 Y97.365
;TYPE:WALL-INNER
G1 F1500 E91.54049
G1 F900 X90.405 Y97.82 E91.56871
G1 X90.832 Y98.17 E91.59625
G1 X91.335 Y98.401 E91.62387
G1 X91.879 Y98.5 E91.65146
G1 X92.428 Y98.463 E91.67891
G1 X92.952 Y98.288 E91.70647
G1 X93.417 Y97.989 E91.73405
G1 X93.783 Y97.594 E91.76092
G1 X94.05 Y97.112 E91.78841
G1 X94.187 Y96.575 E91.81606
G1 X94.187 Y96.025 E91.84349
G1 X94.05 Y95.489 E91.8711
G1 X93.783 Y95.003 E91.89876
G1 X93.393 Y94.592 E91.92703
G1 X92.923 Y94.299 E91.95466
G1 X92.398 Y94.133 E91.98213
G1 X91.846 Y94.101 E92.00972
G1 X91.304 Y94.208 E92.03728
G1 X90.806 Y94.447 E92.06484
G1 X90.393 Y94.791 E92.09165
G1 X90.068 Y95.238 E92.11922
G1 X89.865 Y95.752 E92.1468
G1 X89.795 Y96.3 E92.17436
G1 X89.865 Y96.849 E92.20197
G1 X90.069 Y97.365 E92.22965
G0 F3600 X89.435 Y101.506
G1 F900 X89.549 Y101.668 E92.23953
G1 X89.55 Y101.669 E92.2396
G1 X89.721 Y101.913 E92.25447
G1 X89.835 Y102.076 E92.26439
G1 X89.672 Y102.19 E92.2708
G1 X87.93 Y103.409 E92.37687
G1 X87.616 Y103.629 E92.396
G1 X87.616 Y103.246 E92.40664
G1 X87.616 Y103.245 E92.40669
G1 X87.616 Y100.1 E92.56359
G1 X88.35 Y100.1 E92.60021
G1 X88.35 Y93.115 E92.94869
G1 X89.28 Y92.1 E93.01737
G1 X102.233 Y92.1 E93.6636
G1 X102.234 Y92.1 E93.66365
G1 X102.867 Y92.1 E93.69523
G1 X102.348 Y92.463 E93.71177
G1 X89.598 Y101.392 E94.48834
G1 X89.435 Y101.506 E94.49474
G0 F3600 X90.181 Y97.346
