;FLAVOR:Marlin
;TIME:1200
;Filament used: 0.678928m
;Layer height: 0.2
;MINX:92.35
;MINY:79.4
;MINZ:0.3
;MAXX:121.443
;MAXY:116.9
;MAXZ:13.9
;Generated with Cura_SteamEngine 4.8.0
M140 S90
M105
M190 S90
M104 S240
M105
M109 S240
M82 ;absolute extrusion mode
G21 ;metric values
G90 ;absolute positioning
M82 ;set extruder to absolute mode
M107 ;start with the fan off
G28 X0 Y0 ;move X/Y to min endstops
G28 Z0 ;move Z to min endstops
G1 Z15.0 F9000 ;move the platform down 15mm
G92 E0 ;zero the extruded length
G1 F200 E3 ;extrude 3mm of feed stock
G92 E0 ;zero the extruded length again
G1 F9000
;Put printing message on LCD screen
M117 Printing...
G92 E0
G92 E0
G1 F1500 E-6.5
;LAYER_COUNT:69
;LAYER:0
M107
G0 F3600 X93.357 Y88.513 Z0.3
;TYPE:SKIRT
G1 F1500 E0
G1 F1800 X93.759 Y88.116 E0.02819
G1 X94.429 Y87.652 E0.06885
G1 X94.568 Y87.575 E0.07677
G1 X96.902 Y86.227 E0.21124
G1 X99.231 Y84.791 E0.34775
G1 X101.498 Y83.305 E0.48298
G1 X103.707 Y81.763 E0.61739
G1 X105.492 Y80.44 E0.72823
G1 X105.877 Y80.163 E0.7519
G1 X106.358 Y79.866 E0.7801
G1 X106.876 Y79.64 E0.80829
G1 X107.421 Y79.489 E0.83651
G1 X108.078 Y79.412 E0.86951
G1 X108.476 Y79.401 E0.88938
G1 X109.853 Y79.4 E0.95807
G1 X110.556 Y79.41 E0.99315
G1 X111.119 Y79.458 E1.02134
G1 X111.67 Y79.585 E1.04955
G1 X112.198 Y79.789 E1.07779
G1 X112.691 Y80.064 E1.10595
G1 X113.128 Y80.395 E1.1333
G1 X113.645 Y80.846 E1.16753
G1 X117.733 Y84.528 E1.44201
G1 X118.268 Y85.023 E1.47838
G1 X118.654 Y85.435 E1.50654
G1 X118.979 Y85.898 E1.53477
G1 X119.235 Y86.402 E1.56297
G1 X119.418 Y86.937 E1.59118
G1 X119.524 Y87.499 E1.61971
G1 X119.578 Y87.974 E1.64356
G1 X121.374 Y108.517 E2.67236
G1 X121.42 Y109.14 E2.70353
G1 X121.43 Y109.371 E2.71507
G1 X121.443 Y110.19 E2.75593
G1 X121.443 Y112.219 E2.85716
G1 X121.433 Y112.946 E2.89343
G1 X121.385 Y113.509 E2.92162
G1 X121.258 Y114.06 E2.94983
G1 X121.055 Y114.588 E2.97805
G1 X120.78 Y115.082 E3.00626
G1 X120.438 Y115.532 E3.03446
G1 X120.035 Y115.929 E3.06268
G1 X119.581 Y116.265 E3.09086
G1 X119.084 Y116.534 E3.11906
G1 X118.554 Y116.731 E3.14727
G1 X118.001 Y116.85 E3.17549
G1 X117.225 Y116.898 E3.21428
G1 X117.113 Y116.9 E3.21986
G1 X107.986 Y116.9 E3.67521
G1 X107.279 Y116.889 E3.71049
G1 X106.716 Y116.84 E3.73868
G1 X106.165 Y116.712 E3.7669
G1 X105.796 Y116.579 E3.78647
G1 X103.097 Y115.449 E3.93245
G1 X100.537 Y114.461 E4.06935
G1 X98.024 Y113.577 E4.20226
G1 X95.453 Y112.75 E4.337
G1 X94.878 Y112.555 E4.36729
G1 X94.832 Y112.536 E4.36977
G1 X94.326 Y112.284 E4.39797
G1 X93.861 Y111.963 E4.42616
G1 X93.445 Y111.579 E4.45441
G1 X93.088 Y111.141 E4.4826
G1 X92.796 Y110.657 E4.5108
G1 X92.575 Y110.137 E4.53899
G1 X92.43 Y109.59 E4.56722
G1 X92.361 Y108.952 E4.59924
G1 X92.35 Y108.52 E4.6208
G1 X92.35 Y91.8 E5.45496
G1 X92.36 Y91.098 E5.48999
G1 X92.408 Y90.535 E5.51818
G1 X92.535 Y89.984 E5.54639
G1 X92.739 Y89.456 E5.57463
G1 X93.014 Y88.963 E5.60279
G1 X93.357 Y88.513 E5.63102
G0 F3600 X93.75 Y88.675
G1 F1800 X94.147 Y88.315 E5.65776
G1 X94.622 Y88.002 E5.68614
G1 X94.763 Y87.924 E5.69418
G1 X97.132 Y86.556 E5.83066
G1 X99.413 Y85.149 E5.96436
G1 X101.74 Y83.624 E6.10317
G1 X103.951 Y82.081 E6.23768
G1 X105.726 Y80.765 E6.34792
G1 X106.111 Y80.488 E6.37158
G1 X106.568 Y80.208 E6.39832
G1 X107.062 Y79.999 E6.42508
G1 X107.581 Y79.866 E6.45181
G1 X108.091 Y79.812 E6.4774
G1 X108.476 Y79.801 E6.49661
G1 X109.847 Y79.8 E6.56501
G1 X110.55 Y79.81 E6.60009
G1 X111.084 Y79.858 E6.62684
G1 X111.606 Y79.984 E6.65363
G1 X112.102 Y80.187 E6.68037
G1 X112.563 Y80.461 E6.70712
G1 X112.865 Y80.697 E6.72624
G1 X113.377 Y81.144 E6.76015
G1 X117.461 Y84.822 E7.03435
G1 X117.996 Y85.317 E7.07072
G1 X118.361 Y85.709 E7.09744
G1 X118.664 Y86.152 E7.12422
G1 X118.898 Y86.634 E7.15095
G1 X119.058 Y87.146 E7.17771
G1 X119.169 Y87.908 E7.21613
G1 X120.971 Y108.498 E8.24729
G1 X121.021 Y109.17 E8.28091
G1 X121.031 Y109.378 E8.2913
G1 X121.043 Y110.133 E8.32897
G1 X121.043 Y112.214 E8.43279
G1 X121.033 Y112.941 E8.46907
G1 X120.985 Y113.475 E8.49582
G1 X120.859 Y113.996 E8.52256
G1 X120.657 Y114.493 E8.54932
G1 X120.383 Y114.954 E8.57608
G1 X120.044 Y115.369 E8.60281
G1 X119.647 Y115.73 E8.62958
G1 X119.201 Y116.027 E8.65632
G1 X118.715 Y116.255 E8.6831
G1 X118.201 Y116.408 E8.70985
G1 X117.534 Y116.49 E8.74338
G1 X117.113 Y116.5 E8.76439
G1 X107.992 Y116.5 E9.21944
G1 X107.285 Y116.489 E9.25472
G1 X106.751 Y116.44 E9.28147
G1 X106.23 Y116.313 E9.30822
G1 X105.951 Y116.21 E9.32306
G1 X103.26 Y115.083 E9.46861
G1 X100.677 Y114.087 E9.60673
G1 X98.131 Y113.191 E9.74139
G1 X95.566 Y112.366 E9.87581
G1 X95.031 Y112.185 E9.90399
G1 X94.985 Y112.166 E9.90647
G1 X94.506 Y111.925 E9.93322
G1 X94.068 Y111.616 E9.95996
G1 X93.681 Y111.244 E9.98675
G1 X93.353 Y110.82 E10.01349
G1 X93.092 Y110.351 E10.04027
G1 X92.904 Y109.849 E10.06701
G1 X92.792 Y109.325 E10.09374
G1 X92.751 Y108.622 E10.12888
G1 X92.75 Y91.806 E10.96783
G1 X92.76 Y91.104 E11.00286
G1 X92.808 Y90.57 E11.02961
G1 X92.934 Y90.048 E11.0564
G1 X93.137 Y89.552 E11.08313
G1 X93.411 Y89.091 E11.10989
G1 X93.75 Y88.675 E11.13666
G0 F3600 X93.806 Y89.226
G1 F1800 X94.142 Y88.848 E11.16189
G1 X94.533 Y88.528 E11.1871
G1 X94.92 Y88.295 E11.20964
G1 X97.336 Y86.899 E11.34885
G1 X99.663 Y85.464 E11.48524
G1 X101.943 Y83.97 E11.62124
G1 X104.19 Y82.402 E11.75794
G1 X105.959 Y81.089 E11.86784
G1 X106.344 Y80.812 E11.89151
G1 X106.777 Y80.551 E11.91673
G1 X107.245 Y80.36 E11.94195
G1 X107.737 Y80.246 E11.96715
G1 X108.371 Y80.203 E11.99885
G1 X108.477 Y80.201 E12.00414
G1 X109.842 Y80.2 E12.07224
G1 X110.545 Y80.21 E12.10731
G1 X111.048 Y80.257 E12.13252
G1 X111.538 Y80.383 E12.15776
G1 X112.001 Y80.585 E12.18296
G1 X112.602 Y80.998 E12.21934
G1 X113.109 Y81.441 E12.25293
G1 X117.189 Y85.115 E12.52685
G1 X117.724 Y85.61 E12.56321
G1 X118.067 Y85.982 E12.58846
G1 X118.347 Y86.403 E12.61368
G1 X118.557 Y86.862 E12.63887
G1 X118.73 Y87.591 E12.67625
G1 X118.781 Y88.043 E12.69894
G1 X120.576 Y108.576 E13.72724
G1 X120.622 Y109.199 E13.75841
G1 X120.631 Y109.384 E13.76765
G1 X120.643 Y110.139 E13.80532
G1 X120.643 Y112.208 E13.90854
G1 X120.633 Y112.935 E13.94482
G1 X120.586 Y113.438 E13.97002
G1 X120.46 Y113.928 E13.99526
G1 X120.259 Y114.392 E14.02049
G1 X119.987 Y114.818 E14.04571
G1 X119.652 Y115.197 E14.07094
G1 X119.261 Y115.517 E14.09615
G1 X118.825 Y115.772 E14.12135
G1 X118.354 Y115.956 E14.14658
G1 X117.859 Y116.062 E14.17183
G1 X117.203 Y116.099 E14.20461
G1 X107.998 Y116.1 E14.66385
G1 X107.291 Y116.089 E14.69913
G1 X106.788 Y116.041 E14.72434
G1 X106.105 Y115.841 E14.75984
G1 X103.379 Y114.7 E14.90728
G1 X100.847 Y113.722 E15.04269
G1 X98.249 Y112.808 E15.1801
G1 X95.678 Y111.981 E15.31484
G1 X95.183 Y111.816 E15.34087
G1 X95.137 Y111.797 E15.34335
G1 X94.687 Y111.567 E15.36856
G1 X94.278 Y111.27 E15.39378
G1 X93.921 Y110.912 E15.419
G1 X93.625 Y110.502 E15.44423
G1 X93.397 Y110.051 E15.46945
G1 X93.243 Y109.569 E15.49469
G1 X93.16 Y108.929 E15.52689
G1 X93.15 Y108.52 E15.5473
G1 X93.15 Y91.811 E16.38091
G1 X93.16 Y91.109 E16.41594
G1 X93.207 Y90.606 E16.44114
G1 X93.333 Y90.116 E16.46639
G1 X93.535 Y89.653 E16.49159
G1 X93.806 Y89.226 E16.51682
G1 F1500 E10.01682
;MESH:plug-aligner.stl
G0 F3600 X95.685 Y91.564
G0 X96.764 Y91.564
G0 X101.85 Y92.4
;TYPE:WALL-INNER
G1 F1500 E16.51682
G1 F900 X96.95 Y92.4 E16.76128
G1 X96.95 Y91.75 E16.79371
G1 X101.85 Y91.75 E17.03817
G1 X101.85 Y92.4 E17.0706
G0 F3600 X102.222 Y98.328
G0 X103.05 Y101.3
G1 F900 X102.6 Y101.3 E17.09305
G1 X102.6 Y98.7 E17.22277
G1 X103.05 Y98.7 E17.24522
G1 X103.05 Y101.3 E17.37493
G0 F3600 X102.222 Y101.672
G0 X102.228 Y107.228
G0 X101.85 Y108.25
G1 F900 X96.95 Y108.25 E17.61939
G1 X96.95 Y107.6 E17.65182
G1 X101.85 Y107.6 E17.89628
G1 X101.85 Y108.25 E17.92871
G0 F3600 X102.15 Y98.225
G0 X102.25 Y98.3
;TYPE:WALL-OUTER
G1 F900 X103.45 Y98.3 E17.98858
G1 X103.45 Y101.7 E18.15821
G1 X102.25 Y101.7 E18.21808
G1 X102.25 Y107.2 E18.49247
G1 X102.25 Y108.65 E18.56481
G1 X96.55 Y108.65 E18.84919
G1 X96.55 Y107.2 E18.92153
G1 X96.55 Y92.8 E19.63995
G1 X96.55 Y91.35 E19.71229
G1 X102.25 Y91.35 E19.99666
G1 X102.25 Y92.8 E20.069
G1 X102.25 Y98.3 E20.3434
G0 F3600 X102.45 Y98.3
G0 X102.45 Y98.6
G0 X102.228 Y92.772
G0 X96.572 Y92.772
G0 X96.6 Y92.8
G1 F900 X96.6 Y107.2 E20.4332
G1 X102.2 Y107.2 E20.71259
G1 X102.2 Y101.7 E20.74688
G1 X102.2 Y98.3 E20.91651
G1 X102.2 Y92.8 E20.95081
G1 X96.6 Y92.8 E21.2302
G0 F3600 X96.6 Y93
G0 X96.5 Y93
G0 X97.31 Y92.219
;TYPE:SKIN
G1 F900 X97.128 Y92.037 E21.24304
G0 F3600 X97.587 Y91.93
G1 F900 X97.876 Y92.219 E21.26343
G0 F3600 X98.152 Y91.93
G1 F900 X98.441 Y92.219 E21.28382
G0 F3600 X98.718 Y91.93
G1 F900 X99.007 Y92.219 E21.30421
G0 F3600 X99.284 Y91.93
G1 F900 X99.573 Y92.219 E21.3246
G0 F3600 X99.849 Y91.93
G1 F900 X100.139 Y92.219 E21.34503
G0 F3600 X100.415 Y91.93
G1 F900 X100.704 Y92.219 E21.36542
G0 F3600 X100.981 Y91.93
G1 F900 X101.27 Y92.219 E21.38581
G0 F3600 X101.546 Y91.93
G1 F900 X101.669 Y92.052 E21.39445
G0 F3600 X102.228 Y92.772
G0 X102.228 Y107.228
G0 X101.669 Y107.892
G1 F900 X101.556 Y107.779 E21.40242
G0 F3600 X101.281 Y108.069
G1 F900 X100.991 Y107.779 E21.42288
G0 F3600 X100.715 Y108.069
G1 F900 X100.425 Y107.779 E21.44334
G0 F3600 X100.149 Y108.069
G1 F900 X99.859 Y107.779 E21.46381
G0 F3600 X99.583 Y108.069
G1 F900 X99.294 Y107.779 E21.48423
G0 F3600 X99.018 Y108.069
G1 F900 X98.728 Y107.779 E21.50469
G0 F3600 X98.452 Y108.069
G1 F900 X98.162 Y107.779 E21.52515
G0 F3600 X97.886 Y108.069
G1 F900 X97.596 Y107.779 E21.54561
G0 F3600 X97.321 Y108.069
G1 F900 X97.13 Y107.878 E21.55909
G0 F3600 X97.15 Y107.878
G1 F1500 E15.05909
;MESH:print-fan-support.stl
G0 F3600 X102.036 Y107.414
G0 X103.115 Y107.414
G0 X105.589 Y106.787
G0 X106.835 Y106.568
G0 X114.896 Y88.287
G0 X114.985 Y88.243
;TYPE:WALL-INNER
G1 F1500 E21.55909
G1 F900 X116.843 Y109.482 E22.62276
G1 X116.843 Y112.3 E22.76335
G1 X107.845 Y112.3 E23.21226
G1 X103.775 Y89.221 E24.38144
G1 X108.476 Y84 E24.73195
G1 X110.272 Y84 E24.82155
G1 X114.985 Y88.243 E25.13793
G0 F3600 X115.369 Y88.051
;TYPE:WALL-OUTER
G1 F900 X117.243 Y109.47 E26.21061
G1 X117.243 Y112.7 E26.37176
G1 X107.509 Y112.7 E26.85739
G1 X103.347 Y89.098 E28.05306
G1 X108.298 Y83.6 E28.42219
G1 X110.426 Y83.6 E28.52835
G1 X115.369 Y88.051 E28.86021
G0 F3600 X115.386 Y88.25
G0 X114.61 Y88.431
;TYPE:SKIN
G1 F900 X116.453 Y109.482 E29.91446
G1 X116.453 Y111.91 E30.03559
G1 X108.172 Y111.91 E30.44874
G1 X104.192 Y89.341 E31.59208
G1 X108.65 Y84.39 E31.92446
G1 X110.122 Y84.39 E31.9979
G1 X114.61 Y88.431 E32.2992
G0 F3600 X114.48 Y89.024
G1 F900 X110.025 Y84.569 E32.61352
G0 F3600 X109.46 Y84.569
G1 F900 X114.535 Y89.644 E32.97159
G0 F3600 X114.589 Y90.265
G1 F900 X108.894 Y84.569 E33.37344
G0 F3600 X108.539 Y84.78
G1 F900 X114.643 Y90.885 E33.80415
G0 F3600 X114.698 Y91.505
G1 F900 X108.271 Y85.078 E34.25761
G0 F3600 X108.003 Y85.376
G1 F900 X114.752 Y92.124 E34.73375
G0 F3600 X114.806 Y92.744
G1 F900 X107.735 Y85.673 E35.23265
G0 F3600 X107.467 Y85.971
G1 F900 X114.861 Y93.364 E35.7543
G0 F3600 X114.915 Y93.985
G1 F900 X107.199 Y86.269 E36.2987
G0 F3600 X106.931 Y86.566
G1 F900 X114.969 Y94.605 E36.86586
G0 F3600 X115.023 Y95.224
G1 F900 X106.663 Y86.864 E37.45571
G0 F3600 X106.395 Y87.162
G1 F900 X115.078 Y95.844 E38.0683
G0 F3600 X115.132 Y96.464
G1 F900 X106.127 Y87.459 E38.70365
G0 F3600 X105.859 Y87.757
G1 F900 X115.186 Y97.085 E39.36176
G0 F3600 X115.241 Y97.705
G1 F900 X105.591 Y88.055 E40.04262
G0 F3600 X105.323 Y88.352
G1 F900 X115.295 Y98.324 E40.7462
G0 F3600 X115.349 Y98.944
G1 F900 X105.055 Y88.65 E41.4725
G0 F3600 X104.787 Y88.948
G1 F900 X115.404 Y99.564 E42.22155
G0 F3600 X115.458 Y100.185
G1 F900 X104.519 Y89.246 E42.99335
G0 F3600 X104.443 Y89.736
G1 F900 X115.512 Y100.805 E43.77433
G0 F3600 X115.566 Y101.424
G1 F900 X104.565 Y90.423 E44.55051
G0 F3600 X104.686 Y91.11
G1 F900 X115.621 Y102.044 E45.322
G0 F3600 X115.675 Y102.664
G1 F900 X104.807 Y91.796 E46.08879
G0 F3600 X104.928 Y92.483
G1 F900 X115.73 Y103.284 E46.8509
G0 F3600 X115.784 Y103.905
G1 F900 X105.049 Y93.17 E47.60831
G0 F3600 X105.17 Y93.857
G1 F900 X115.838 Y104.524 E48.36096
G0 F3600 X115.892 Y105.144
G1 F900 X105.291 Y94.543 E49.10892
G0 F3600 X105.412 Y95.23
G1 F900 X115.947 Y105.764 E49.85218
G0 F3600 X116.001 Y106.384
G1 F900 X105.534 Y95.917 E50.59069
G0 F3600 X105.655 Y96.604
G1 F900 X116.056 Y107.005 E51.32453
G0 F3600 X116.109 Y107.624
G1 F900 X105.776 Y97.29 E52.05362
G0 F3600 X105.897 Y97.977
G1 F900 X116.164 Y108.244 E52.77801
G0 F3600 X116.218 Y108.864
G1 F900 X106.018 Y98.664 E53.49768
G0 F3600 X106.139 Y99.351
G1 F900 X116.272 Y109.484 E54.21261
G0 F3600 X116.272 Y110.049
G1 F900 X106.26 Y100.037 E54.91901
G0 F3600 X106.381 Y100.724
G1 F900 X116.272 Y110.615 E55.61688
G0 F3600 X116.272 Y111.181
G1 F900 X106.503 Y101.411 E56.30617
G0 F3600 X106.623 Y102.098
G1 F900 X116.254 Y111.729 E56.98569
G0 F3600 X115.689 Y111.729
G1 F900 X106.744 Y102.785 E57.61677
G0 F3600 X106.866 Y103.472
G1 F900 X115.123 Y111.729 E58.19935
G0 F3600 X114.557 Y111.729
G1 F900 X106.987 Y104.158 E58.73349
G0 F3600 X107.108 Y104.845
G1 F900 X113.991 Y111.729 E59.21915
G0 F3600 X113.426 Y111.729
G1 F900 X107.229 Y105.532 E59.65639
G0 F3600 X107.35 Y106.219
G1 F900 X112.86 Y111.729 E60.04515
G0 F3600 X112.294 Y111.729
G1 F900 X107.471 Y106.906 E60.38544
G0 F3600 X107.592 Y107.592
G1 F900 X111.729 Y111.729 E60.67732
G0 F3600 X111.163 Y111.729
G1 F900 X107.713 Y108.279 E60.92074
G0 F3600 X107.835 Y108.966
G1 F900 X110.597 Y111.729 E61.11565
G0 F3600 X110.032 Y111.729
G1 F900 X107.956 Y109.653 E61.26212
G0 F3600 X108.077 Y110.339
G1 F900 X109.466 Y111.729 E61.36016
G0 F3600 X108.9 Y111.729
G1 F900 X108.197 Y111.026 E61.40976
G1 X108.127 Y110.956
G1 F1500 E54.90976
;MESH:NONMESH
G0 F600 X108.127 Y110.956 Z0.5
G0 F3600 X104.261 Y91.975
G0 X102.03 Y91.975
G0 X101.85 Y92.4
;TIME_ELAPSED:91.644511
;LAYER:1
M106 S255
;TYPE:WALL-INNER
;MESH:plug-aligner.stl
G1 F1500 E61.40976
G1 F1350 X96.95 Y92.4 E61.57273
G1 X96.95 Y91.75 E61.59435
G1 X101.85 Y91.75 E61.75733
G1 X101.85 Y92.4 E61.77895
G0 F5400 X102.222 Y98.328
G0 X103.05 Y101.3
G1 F1350 X102.6 Y101.3 E61.79391
G1 X102.6 Y98.7 E61.88039
G1 X103.05 Y98.7 E61.89536
G1 X103.05 Y101.3 E61.98183
G0 F5400 X102.222 Y101.672
G0 X102.228 Y107.228
G0 X101.85 Y108.25
G1 F1350 X96.95 Y108.25 E62.14481
G1 X96.95 Y107.6 E62.16643
G1 X101.85 Y107.6 E62.3294
G1 X101.85 Y108.25 E62.35102
G0 F5400 X102.15 Y98.225
G0 X102.25 Y98.3
;TYPE:WALL-OUTER
G1 F900 X103.45 Y98.3 E62.39093
G1 X103.45 Y101.7 E62.50402
G1 X102.25 Y101.7 E62.54393
G1 X102.25 Y107.2 E62.72686
G1 X102.25 Y108.65 E62.77509
G1 X96.55 Y108.65 E62.96467
G1 X96.55 Y107.2 E63.0129
G1 X96.55 Y92.8 E63.49184
G1 X96.55 Y91.35 E63.54007
G1 X102.25 Y91.35 E63.72965
G1 X102.25 Y92.8 E63.77788
G1 X102.25 Y98.3 E63.96081
G0 F5400 X102.45 Y98.3
G0 X102.45 Y98.6
G0 X102.228 Y92.772
G0 X96.572 Y92.772
G0 X96.6 Y92.8
G1 F900 X96.6 Y107.2 E64.02068
G1 X102.2 Y107.2 E64.20694
G1 X102.2 Y101.7 E64.2298
G1 X102.2 Y98.3 E64.34289
G1 X102.2 Y92.8 E64.36575
G1 X96.6 Y92.8 E64.55201
G0 F5400 X96.6 Y93
G0 X96.5 Y93
G0 X97.284 Y92.22
;TYPE:SKIN
G1 F1350 X97.575 Y91.929 E64.5657
G0 F5400 X97.85 Y92.22
G1 F1350 X98.14 Y91.929 E64.57936
G0 F5400 X98.415 Y92.22
G1 F1350 X98.706 Y91.929 E64.59305
G0 F5400 X98.981 Y92.22
G1 F1350 X99.272 Y91.929 E64.60674
G0 F5400 X99.547 Y92.22
G1 F1350 X99.837 Y91.929 E64.6204
G0 F5400 X100.112 Y92.22
G1 F1350 X100.403 Y91.929 E64.63409
G0 F5400 X100.678 Y92.22
G1 F1350 X100.969 Y91.929 E64.64778
G0 F5400 X101.244 Y92.22
G1 F1350 X101.534 Y91.929 E64.66144
G0 F5400 X102.228 Y92.772
G0 X102.228 Y107.228
G0 X101.524 Y107.779
G1 F1350 X101.234 Y108.069 E64.67508
G0 F5400 X100.958 Y107.779
G1 F1350 X100.668 Y108.069 E64.68872
G0 F5400 X100.392 Y107.779
G1 F1350 X100.102 Y108.069 E64.70236
G0 F5400 X99.827 Y107.779
G1 F1350 X99.537 Y108.069 E64.716
G0 F5400 X99.261 Y107.779
G1 F1350 X98.971 Y108.069 E64.72964
G0 F5400 X98.695 Y107.779
G1 F1350 X98.405 Y108.069 E64.74329
G0 F5400 X98.13 Y107.779
G1 F1350 X97.84 Y108.069 E64.75693
G0 F5400 X97.564 Y107.779
G1 F1350 X97.274 Y108.069 E64.77057
